!!!!SEGMENT: pl-cz--ii-154--002_maader-ludwik--salve-regina.krn
!!!cenid: 17xx:969
!!!COM: Maader, Ludwik
!!!COM-rismID: pe30020328
!!!CDT: <1794->1798
!!!CNT:
!!!OTL: Salve Regina
!!!PDT: 1786
!!!AGN: Sacred
!!!SMS-siglum: PL-CZ
!!!SMS-shelfmark: II-154
!!!SMS-shelfwork: 002 W
!!!SMS-variant:
!!!SMS-altvar:
!!!NIFC-rismSourceID: 300000756
!!!NIFC-rismChildID: 300000758
!!!NIFC-islandoraID: pl-cz:32610
!!!URL-pdf-islandora: https://repozytorium.nifc.pl/islandora/object/pl-cz%3A32610/datastream/PDF/view
!!!URL-scan: https://polish.musicsources.pl/pl/lokalizacje/galeria/rekopisy/6768/1 @EN{Scan on Polish Music Sources Website} @PL{Skany w portalu Dziedzictwo Muzyki Polskiej w otwartym dostępie}
!!!ONB-nifc: UWAGA: w okładce fragment innego utworu. Uwaga: Litaniae (Kyrie) i Salve Regina to osobne utwory
!!!AIN: 1 alto 1 bass 2 clrno 1 organ 1 soprn 1 tenor 2 violn
!!!key: C
!!!OMD:
!!!OMD-mod: Moderato
**kern	**fba	**dynam	**kern	**dynam	**kern	**dynam	**kern	**text	**mod-text	**kern	**text	**mod-text	**kern	**text	**mod-text	**kern	**text	**mod-text	**kern	**kern
*	*	*	*group3	*	*group3	*	*group2	*	*	*group2	*	*	*group2	*	*	*group2	*	*	*group1	*group1
*part9	*part9	*part9	*part8	*part8	*part7	*part7	*part6	*part6	*part6	*part5	*part5	*part5	*part4	*part4	*part4	*part3	*part3	*part3	*part2	*part1
*staff9	*	*	*staff8	*	*staff7	*	*staff6	*staff6	*staff6	*staff5	*staff5	*staff5	*staff4	*staff4	*staff4	*staff3	*staff3	*staff3	*staff2	*staff1
*I"Organo	*	*	*I"Violino Secondo	*	*I"Violino Primo obl:	*	*I"Baſso	*	*	*I"Tenore	*	*	*I"Alto	*	*	*I"Canto	*	*	*I"Clarino Secondo	*I"Clarino Primo
*mI"Organ	*	*	*mI"Violino II	*	*mI"Violino I obl	*	*mI"Basso	*	*	*	*	*	*	*	*	*mI"Soprano	*	*	*mI"Clarino II	*mI"Clarino I
*I'org	*	*	*I'vl 2	*	*I'vl 1 obl	*	*I'B	*	*	*I'T	*	*	*I'A	*	*	*I'S	*	*	*I'clno 2	*I'clno 1
*Iorgan	*	*	*Ivioln	*	*Ivioln	*	*Ibass	*	*	*Itenor	*	*	*Ialto	*	*	*Isoprn	*	*	*Iclrno	*Iclrno
*ICklav	*	*	*ICstr	*	*ICstr	*	*ICvox	*	*	*ICvox	*	*	*ICvox	*	*	*ICvox	*	*	*ICbras	*ICbras
*IGcont	*	*	*	*	*	*	*IGcoro	*	*	*IGcoro	*	*	*IGcoro	*	*	*IGcoro	*	*	*	*
*	*	*	*	*	*	*	*	*	*	*	*	*	*	*	*	*	*	*	*tacet	*tacet
*clefF4	*	*	*clefG2	*	*clefG2	*	*clefF4	*	*	*clefGv2	*	*	*clefG2	*	*	*clefG2	*	*	*clefG2	*clefG2
*k[]	*	*	*k[]	*	*k[]	*	*k[]	*	*	*k[]	*	*	*k[]	*	*	*k[]	*	*	*k[]	*k[]
*C:	*	*	*C:	*	*C:	*	*C:	*	*	*C:	*	*	*C:	*	*	*C:	*	*	*C:	*C:
*M3/4	*	*	*M3/4	*	*M3/4	*	*M3/4	*	*	*M3/4	*	*	*M3/4	*	*	*M3/4	*	*	*M3/4	*M3/4
=1	=1	=1	=1	=1	=1	=1	=1	=1	=1	=1	=1	=1	=1	=1	=1	=1	=1	=1	=1	=1
!	!	!	!LO:TX:a:t=moderato:mod=	!	!LO:TX:a:i:t=Tutti	!LO:DY:b:t=for.:mod=	!	!	!	!LO:TX:a:t=moderato:mod=	!	!	!LO:TX:a:t=modera&colon;:mod=	!	!	!LO:TX:a:t=moderato:mod=	!	!	!LO:TX:t=P:problem=wg RISM "clno 1, 2 missing"	!LO:TX:t=P:problem=wg RISM "clno 1, 2 missing"
4C/	.	.	4cc\	.	4ee\	f	4c\	Sal-	Sal-	4G/	Sal-	Sal-	4cc\	Sal-	Sal-	4ee\	Sal-	Sal-	2.ryy	2.ryy
4C/	.	.	4cc\	.	4ee\	.	4c\	-ve	-ve	4G/	-ve	-ve	4cc\	-ve	-ve	4ee\	-ve	-ve	.	.
4C/	.	.	4ee\	.	4gg\	.	4c\	Re-	Re-	4c\	Re-	Re-	4ee\	Re-	Re-	4gg\	Re-	Re-	.	.
=2	=2	=2	=2	=2	=2	=2	=2	=2	=2	=2	=2	=2	=2	=2	=2	=2	=2	=2	=2	=2
4D\	6	.	8ee\L	.	8gg\L	.	4d\	-gi-	-gi-	4B\	-gi-	-gi-	8ee\L	-gi-	-gi-	8gg\L	-gi-	-gi-	2.ryy	2.ryy
.	.	.	8dd\J	.	8ff\J	.	.	.	.	.	.	.	8dd\J	.	.	8ff\J	.	.	.	.
!LO:MO:mod=*2\left	!	!	!LO:MO:mod=*2\left	!	!LO:MO:mod=*2\left	!	!LO:MO:mod=*2\left	!	!	!LO:MO:mod=*2\left	!	!	!LO:MO:mod=*2\left	!	!	!LO:MO:mod=*2\left	!	!	!	!
*2\right	*	*	*2\right	*	*2\right	*	*2\right	*	*	*2\right	*	*	*2\right	*	*	*2\right	*	*	*	*
2D\	.	.	2dd\	.	2ff\	.	2d\	-na	-na	2B\	-na	-na	2dd\	-na	-na	2ff\	-na	-na	.	.
=3	=3	=3	=3	=3	=3	=3	=3	=3	=3	=3	=3	=3	=3	=3	=3	=3	=3	=3	=3	=3
!	!	!LO:DY:b:t=pia&colon;:mod=	!	!	!LO:TX:a:i:t=Solo	!	!	!	!	!	!	!	!	!	!	!	!	!	!	!
4BB/	.	p	0.r	.	16ff\LL	.	0.r	.	.	0.r	.	.	0.r	.	.	0.r	.	.	2.ryy	2.ryy
.	.	.	.	.	16dd\	.	.	.	.	.	.	.	.	.	.	.	.	.	.	.
.	.	.	.	.	16ee\	.	.	.	.	.	.	.	.	.	.	.	.	.	.	.
.	.	.	.	.	16ff\JJ	.	.	.	.	.	.	.	.	.	.	.	.	.	.	.
4r	.	.	.	.	16gg\LL	.	.	.	.	.	.	.	.	.	.	.	.	.	.	.
.	.	.	.	.	16aa\	.	.	.	.	.	.	.	.	.	.	.	.	.	.	.
.	.	.	.	.	16bb\	.	.	.	.	.	.	.	.	.	.	.	.	.	.	.
.	.	.	.	.	16ccc\JJ	.	.	.	.	.	.	.	.	.	.	.	.	.	.	.
4r	.	.	.	.	16ddd\LL	.	.	.	.	.	.	.	.	.	.	.	.	.	.	.
.	.	.	.	.	16ccc\	.	.	.	.	.	.	.	.	.	.	.	.	.	.	.
.	.	.	.	.	16ddd\	.	.	.	.	.	.	.	.	.	.	.	.	.	.	.
.	.	.	.	.	16eee\JJ	.	.	.	.	.	.	.	.	.	.	.	.	.	.	.
=4	=4	=4	=4	=4	=4	=4	=4	=4	=4	=4	=4	=4	=4	=4	=4	=4	=4	=4	=4	=4
1.r	.	.	.	.	8fff\L	.	.	.	.	.	.	.	.	.	.	.	.	.	2.ryy	2.ryy
.	.	.	.	.	8eee\	.	.	.	.	.	.	.	.	.	.	.	.	.	.	.
.	.	.	.	.	8ddd\	.	.	.	.	.	.	.	.	.	.	.	.	.	.	.
.	.	.	.	.	8ccc\	.	.	.	.	.	.	.	.	.	.	.	.	.	.	.
.	.	.	.	.	8bb\	.	.	.	.	.	.	.	.	.	.	.	.	.	.	.
.	.	.	.	.	8aa\J	.	.	.	.	.	.	.	.	.	.	.	.	.	.	.
!	!	!	!	!	!LO:LB:g=original	!	!	!	!	!	!	!	!	!	!	!	!	!	!	!
=5	=5	=5	=5	=5	=5	=5	=5	=5	=5	=5	=5	=5	=5	=5	=5	=5	=5	=5	=5	=5
.	.	.	.	.	8gg'\L	.	.	.	.	.	.	.	.	.	.	.	.	.	2.ryy	2.ryy
.	.	.	.	.	8ff'\	.	.	.	.	.	.	.	.	.	.	.	.	.	.	.
.	.	.	.	.	8ee'\	.	.	.	.	.	.	.	.	.	.	.	.	.	.	.
.	.	.	.	.	8dd'\	.	.	.	.	.	.	.	.	.	.	.	.	.	.	.
.	.	.	.	.	8cc'\	.	.	.	.	.	.	.	.	.	.	.	.	.	.	.
.	.	.	.	.	8b'\J	.	.	.	.	.	.	.	.	.	.	.	.	.	.	.
=6	=6	=6	=6	=6	=6	=6	=6	=6	=6	=6	=6	=6	=6	=6	=6	=6	=6	=6	=6	=6
2.r	.	.	.	.	8a'/L	.	.	.	.	.	.	.	.	.	.	.	.	.	2.ryy	2.ryy
.	.	.	.	.	8g'/	.	.	.	.	.	.	.	.	.	.	.	.	.	.	.
.	.	.	.	.	8f'/	.	.	.	.	.	.	.	.	.	.	.	.	.	.	.
.	.	.	.	.	8e'/	.	.	.	.	.	.	.	.	.	.	.	.	.	.	.
.	.	.	.	.	8d'/	.	.	.	.	.	.	.	.	.	.	.	.	.	.	.
.	.	.	.	.	8c'/J	.	.	.	.	.	.	.	.	.	.	.	.	.	.	.
=7	=7	=7	=7	=7	=7	=7	=7	=7	=7	=7	=7	=7	=7	=7	=7	=7	=7	=7	=7	=7
!	!	!LO:DY:b:t=forte:mod=	!	!	!	!	!	!	!	!	!	!	!	!	!	!	!	!	!	!
4G\	.	f	4g/	.	4B'/	.	4G\	Ma-	Ma-	4B\	Ma-	Ma-	4g\	Ma-	Ma-	4dd\	Ma-	Ma-	2.ryy	2.ryy
!	!	!	!	!LO:DY:t= :mod=%s	!	!	!	!	!	!	!	!	!	!	!	!	!	!	!	!
!	!	!	!	!LO:MO:mod=!LO&colon;DY&colon;ed=brack	!	!	!	!	!	!	!	!	!	!	!	!	!	!	!	!
!	!	!	!	!null	!LO:TX:a:i:t=Tutti	!LO:DY:b:t=for.:mod=	!	!	!	!	!	!	!	!	!	!	!	!	!	!
4G\	.	.	8b\L	f	8dd\L	f	8G\	-ter	-ter	8G\	-ter	-ter	8b\	-ter	-ter	8dd\	-ter	-ter	.	.
.	.	.	8b\	.	8dd\	.	8G\	mi-	mi-	8G\	mi-	mi-	8b\	mi-	mi-	8dd\	mi-	mi-	.	.
4B\	.	.	8dd\	.	8ff\	.	8B\	-se-	-se-	8G\	-se-	-se-	8dd\	-se-	-se-	8ff\	-se-	-se-	.	.
.	.	.	8dd\J	.	8ff\J	.	8B\	-ri-	-ri-	8G\	-ri-	-ri-	8dd\	-ri-	-ri-	8ff\	-ri-	-ri-	.	.
=8	=8	=8	=8	=8	=8	=8	=8	=8	=8	=8	=8	=8	=8	=8	=8	=8	=8	=8	=8	=8
4c\	.	.	8dd\L	.	8ff\L	.	8c\	-cor-	-cor-	8G/	-cor-	-cor-	8dd\	-cor-	-cor-	8ff\	-cor-	-cor-	2.ryy	2.ryy
.	.	.	8cc\J	.	8ee\J	.	8C/	-di-	-di-	8G/	-di-	-di-	8cc\	-di-	-di-	8ee\	-di-	-di-	.	.
4C/	.	.	2cc\	.	2ee\	.	2C/	-ae	-ae	2G/	-ae	-ae	2cc\	-ae	-ae	2ee\	-ae	-ae	.	.
4C/	.	.	.	.	.	.	.	.	.	.	.	.	.	.	.	.	.	.	.	.
!	!	!	!LO:LB:g=original	!	!	!	!	!	!	!	!	!	!	!	!	!	!	!	!	!
=9	=9	=9	=9	=9	=9	=9	=9	=9	=9	=9	=9	=9	=9	=9	=9	=9	=9	=9	=9	=9
!	!	!	!	!	!LO:TX:t=P:problem=mixed beam:mod=	!	!	!	!	!	!	!	!	!	!	!	!	!	!	!
!	!	!LO:DY:b:t=piano:mod=	!	!	!LO:TX:a:i:t=Solo	!	!	!	!	!	!	!	!	!	!	!	!	!	!	!
4E\	.	p	0.r	.	8cc\L	.	0.r	.	.	0.r	.	.	0.r	.	.	0.r	.	.	2.ryy	2.ryy
.	.	.	.	.	8c/	.	.	.	.	.	.	.	.	.	.	.	.	.	.	.
4C/	.	.	.	.	8ee\	.	.	.	.	.	.	.	.	.	.	.	.	.	.	.
.	.	.	.	.	8e/	.	.	.	.	.	.	.	.	.	.	.	.	.	.	.
8BB/L	.	.	.	.	8gg\	.	.	.	.	.	.	.	.	.	.	.	.	.	.	.
8D/J	.	.	.	.	8g/J	.	.	.	.	.	.	.	.	.	.	.	.	.	.	.
=10	=10	=10	=10	=10	=10	=10	=10	=10	=10	=10	=10	=10	=10	=10	=10	=10	=10	=10	=10	=10
4E\	.	.	.	.	8ccc\L	.	.	.	.	.	.	.	.	.	.	.	.	.	2.ryy	2.ryy
.	.	.	.	.	8cc\J	.	.	.	.	.	.	.	.	.	.	.	.	.	.	.
8r	.	.	.	.	16gg\LL	.	.	.	.	.	.	.	.	.	.	.	.	.	.	.
.	.	.	.	.	16ee\	.	.	.	.	.	.	.	.	.	.	.	.	.	.	.
8F\	.	.	.	.	16cc\	.	.	.	.	.	.	.	.	.	.	.	.	.	.	.
.	.	.	.	.	16b\JJ	.	.	.	.	.	.	.	.	.	.	.	.	.	.	.
!	!	!	!	!	!LO:TX:t=P:problem=mixed beam:mod=	!	!	!	!	!	!	!	!	!	!	!	!	!	!	!
4E\	.	.	.	.	8cc\L	.	.	.	.	.	.	.	.	.	.	.	.	.	.	.
.	.	.	.	.	8c/J	.	.	.	.	.	.	.	.	.	.	.	.	.	.	.
!LO:LB:g=original	!	!	!	!	!LO:LB:g=original	!	!	!	!	!	!	!	!	!	!	!	!	!	!	!
=11	=11	=11	=11	=11	=11	=11	=11	=11	=11	=11	=11	=11	=11	=11	=11	=11	=11	=11	=11	=11
4E\	.	.	.	.	8ccc\L	.	.	.	.	.	.	.	.	.	.	.	.	.	2.ryy	2.ryy
.	.	.	.	.	8cc\J	.	.	.	.	.	.	.	.	.	.	.	.	.	.	.
8r	.	.	.	.	16gg\LL	.	.	.	.	.	.	.	.	.	.	.	.	.	.	.
.	.	.	.	.	16ee\	.	.	.	.	.	.	.	.	.	.	.	.	.	.	.
8F\	.	.	.	.	16cc\	.	.	.	.	.	.	.	.	.	.	.	.	.	.	.
.	.	.	.	.	16b\JJ	.	.	.	.	.	.	.	.	.	.	.	.	.	.	.
!	!	!	!	!	!LO:TX:t=P:problem=mixed beam:mod=	!	!	!	!	!	!	!	!	!	!	!	!	!	!	!
4E\	.	.	.	.	8cc\L	.	.	.	.	.	.	.	.	.	.	.	.	.	.	.
.	.	.	.	.	8c/J	.	.	.	.	.	.	.	.	.	.	.	.	.	.	.
=12	=12	=12	=12	=12	=12	=12	=12	=12	=12	=12	=12	=12	=12	=12	=12	=12	=12	=12	=12	=12
!	!	!LO:MO:mod= 	!	!	!	!	!	!	!	!	!	!	!	!	!	!	!	!	!	!
4BB/	.	p	.	.	16ddd\LL	.	.	.	.	.	.	.	.	.	.	.	.	.	2.ryy	2.ryy
.	.	.	.	.	16bb\	.	.	.	.	.	.	.	.	.	.	.	.	.	.	.
.	.	.	.	.	16gg\	.	.	.	.	.	.	.	.	.	.	.	.	.	.	.
.	.	.	.	.	16ff#X\JJ	.	.	.	.	.	.	.	.	.	.	.	.	.	.	.
4r	.	.	.	.	16gg\LL	.	.	.	.	.	.	.	.	.	.	.	.	.	.	.
.	.	.	.	.	16ff#\	.	.	.	.	.	.	.	.	.	.	.	.	.	.	.
.	.	.	.	.	16gg\	.	.	.	.	.	.	.	.	.	.	.	.	.	.	.
.	.	.	.	.	16ff#\JJ	.	.	.	.	.	.	.	.	.	.	.	.	.	.	.
8r	.	.	.	.	16gg\LL	.	.	.	.	.	.	.	.	.	.	.	.	.	.	.
.	.	.	.	.	16ffn\	.	.	.	.	.	.	.	.	.	.	.	.	.	.	.
8F\	.	.	.	.	16dd\	.	.	.	.	.	.	.	.	.	.	.	.	.	.	.
.	.	.	.	.	16b\JJ	.	.	.	.	.	.	.	.	.	.	.	.	.	.	.
=13	=13	=13	=13	=13	=13	=13	=13	=13	=13	=13	=13	=13	=13	=13	=13	=13	=13	=13	=13	=13
!	!	!	!	!	!LO:TX:t=P:problem=mixed beam:mod=	!	!	!	!	!	!	!	!	!	!	!	!	!	!	!
4E\	.	.	2.r	.	8cc\L	.	2.r	.	.	2.r	.	.	2.r	.	.	2.r	.	.	2.ryy	2.ryy
.	.	.	.	.	8c/J	.	.	.	.	.	.	.	.	.	.	.	.	.	.	.
4E\	.	.	.	.	4c/	.	.	.	.	.	.	.	.	.	.	.	.	.	.	.
!	!	!	!	!	!LO:TX:i:t=Tutti:mod=	!	!	!	!	!	!	!	!	!	!	!	!	!	!	!
16G'\LL	.	.	.	.	4r	.	.	.	.	.	.	.	.	.	.	.	.	.	.	.
16F'\	.	.	.	.	.	.	.	.	.	.	.	.	.	.	.	.	.	.	.	.
16E'\	.	.	.	.	.	.	.	.	.	.	.	.	.	.	.	.	.	.	.	.
16D'\JJ	.	.	.	.	.	.	.	.	.	.	.	.	.	.	.	.	.	.	.	.
!	!	!	!	!	!	!	!LO:LB:g=original	!	!	!LO:LB:g=original	!	!	!LO:LB:g=original	!	!	!LO:LB:g=original	!	!	!	!
=14	=14	=14	=14	=14	=14	=14	=14	=14	=14	=14	=14	=14	=14	=14	=14	=14	=14	=14	=14	=14
*	*	*	*^	*	*^	*	*	*	*	*	*	*	*	*	*	*	*	*	*	*
!	!	!	!	!	!LO:DY:t= :mod=%s	!	!	!	!	!	!	!	!	!	!	!	!	!	!	!	!	!
!	!	!	!	!	!LO:MO:mod=!LO&colon;DY&colon;ed=brack	!LO:MO:mod=!LO&colon;TX&colon;i&colon;t=Tutti	!	!	!	!	!	!	!	!	!	!	!	!	!	!	!	!
!LO:TX:t=P:problem=mixed beam:mod=	!	!LO:DY:b:t=for.:mod=	!	!	!null	!null	!	!LO:DY:b:t=forte:mod=	!	!	!	!	!	!	!	!	!	!	!	!	!	!
8C/L	.	f	2.gg/	4ee\	f	2.gg/	4ee\	f	4c\	Vi-	Vi-	4c\	Vi-	Vi-	4g\	Vi-	Vi-	4ee\	Vi-	Vi-	2.ryy	2.ryy
8c\J	3	.	.	.	.	.	.	.	.	.	.	.	.	.	.	.	.	.	.	.	.	.
4B\	3	.	.	4dd\	.	.	4dd\	.	4B\	-ta	-ta	4B\	-ta	-ta	4g\	-ta	-ta	4dd\	-ta	-ta	.	.
4c\	3	.	.	4ee\	.	.	4ee\	.	4c\	dul-	dul-	4c\	dul-	dul-	4g\	dul-	dul-	4ee\	dul-	dul-	.	.
=15	=15	=15	=15	=15	=15	=15	=15	=15	=15	=15	=15	=15	=15	=15	=15	=15	=15	=15	=15	=15	=15	=15
8d\L	.	.	2.gg/	8ff\L	.	2.gg/	8ff\L	.	8d\L	-ce-	-ce-	8d\L	-ce-	-ce-	4g\	-ce-	-ce-	8ff\L	-ce-	-ce-	2.ryy	2.ryy
8c\J	.	.	.	8ee\J	.	.	8ee\J	.	8c\J	.	.	8c\J	.	.	.	.	.	8ee\J	.	.	.	.
4d\	.	.	.	2ff\	.	.	2ff\	.	2d\	-do	-do	2d\	-do	-do	2g\	-do	-do	2ff\	-do	-do	.	.
4D\	.	.	.	.	.	.	.	.	.	.	.	.	.	.	.	.	.	.	.	.	.	.
=16	=16	=16	=16	=16	=16	=16	=16	=16	=16	=16	=16	=16	=16	=16	=16	=16	=16	=16	=16	=16	=16	=16
4B\	.	.	2.gg/	4dd\	.	2.gg/	4dd\	.	8B\	et	et	8B\	et	et	8g\	et	et	8dd\	et	et	2.ryy	2.ryy
.	.	.	.	.	.	.	.	.	8B\	Spes	spes	8B\	Spes	spes	8g\	Spes	spes	8dd\	Spes	spes	.	.
4A\	.	.	.	4cc\	.	.	4cc\	.	4A\	no-	no-	4A\	no-	no-	4g\	no-	no-	4cc\	no-	no-	.	.
4B\	.	.	.	4dd\	.	.	4dd\	.	4B\	-stra	-stra	4B\	-stra	-stra	4g\	-stra	-stra	4dd\	-stra	-stra	.	.
!	!	!	!	!	!	!LO:LB:g=original	!LO:LB:g=original	!	!	!	!	!	!	!	!	!	!	!	!	!	!	!
=17	=17	=17	=17	=17	=17	=17	=17	=17	=17	=17	=17	=17	=17	=17	=17	=17	=17	=17	=17	=17	=17	=17
8c\L	.	.	2.gg/	8ee\L	.	2.gg/	8ee\L	.	8c\L	Sal-	sal-	8c\L	Sal-	sal-	4g\	Sal-	sal-	8ee\L	Sal-	sal-	2.ryy	2.ryy
8B\J	.	.	.	8dd\J	.	.	8dd\J	.	8B\J	.	.	8B\J	.	.	.	.	.	8dd\J	.	.	.	.
4c\	.	.	.	2ee\	.	.	2ee\	.	2c\	-ve	-ve	2c\	-ve	-ve	2g\	-ve	-ve	2ee\	-ve	-ve	.	.
4C/	.	.	.	.	.	.	.	.	.	.	.	.	.	.	.	.	.	.	.	.	.	.
=18	=18	=18	=18	=18	=18	=18	=18	=18	=18	=18	=18	=18	=18	=18	=18	=18	=18	=18	=18	=18	=18	=18
4C/	.	.	4ee/	2.g\	.	4ee/	2.g\	.	8C/	E-	E-	8e\	E-	E-	4g\	ad	ad	4cc\	ad	ad	2.ryy	2.ryy
.	.	.	.	.	.	.	.	.	8C/	-ja	-ia	8e\	-ja	-ia	.	.	.	.	.	.	.	.
4BB/	.	.	4dd/	.	.	4dd/	.	.	8BB/	er-	er-	8d\	er-	er-	4g\	te	te	4b\	te	te	.	.
.	.	.	.	.	.	.	.	.	8BB/	-go	-go	8d\	-go	-go	.	.	.	.	.	.	.	.
4C/	.	.	4ee/	.	.	4ee/	.	.	8C/	ad-	ad-	8e\	ad-	ad-	4g\	Cla-	cla-	4cc\	Cla-	cla-	.	.
!	!	!	!	!	!	!	!	!	!	!LO:MO:mod=-vo-	!LO:MO:mod=-vo-	!	!	!	!	!	!	!	!	!	!	!
.	.	.	.	.	.	.	.	.	8C/	-Vo-	-Vo-	8e\	-vo-	-vo-	.	.	.	.	.	.	.	.
!	!	!	!	!	!	!	!	!	!	!	!	!LO:LB:g=original	!	!	!	!	!	!	!	!	!	!
=19	=19	=19	=19	=19	=19	=19	=19	=19	=19	=19	=19	=19	=19	=19	=19	=19	=19	=19	=19	=19	=19	=19
!	!	!	!	!	!	!	!	!	!	!	!	!	!	!	!	!	!	!LO:MO:mod=8ddL\	!	!	!	!
8D/L	.	.	8ff/L	2.g\	.	8ff/L	2.g\	.	8D/L	-ca-	-ca-	8f\L	-ca-	-ca-	4g\	-ma-	-ma-	8dd\	-ma-	-ma-	2.ryy	2.ryy
!	!	!	!	!	!	!	!	!	!	!	!	!	!	!	!	!	!	!LO:MO:mod=8ccJ\	!	!	!	!
8C/J	.	.	8ee/J	.	.	8ee/J	.	.	8C/J	.	.	8e\J	.	.	.	.	.	8cc\	.	.	.	.
4D/	.	.	2ff/	.	.	2ff/	.	.	2D/	-ta	-ta	2f\	-ta	-ta	2g\	-mus	-mus	2dd\	-mus	-mus	.	.
4DD/	.	.	.	.	.	.	.	.	.	.	.	.	.	.	.	.	.	.	.	.	.	.
!LO:LB:g=original	!	!	!LO:LB:g=original	!LO:LB:g=original	!	!	!	!	!LO:LB:g=original	!	!	!	!	!	!LO:LB:g=original	!	!	!LO:LB:g=original	!	!	!	!
=20	=20	=20	=20	=20	=20	=20	=20	=20	=20	=20	=20	=20	=20	=20	=20	=20	=20	=20	=20	=20	=20	=20
!	!	!	!	!	!	!	!	!	!	!LO:MO:mod=ad-	!LO:MO:mod=ad-	!	!	!	!	!	!	!	!	!	!	!
4BB/	.	.	4dd/	2.g\	.	4dd/	2.g\	.	8BB/	Ad-	Ad-	8d\	ad-	ad-	4g\	E-	e-	4b\	E-	e-	2.ryy	2.ryy
!	!	!	!	!	!	!	!	!	!	!	!	!	!LO:MO:mod=-vo-	!LO:MO:mod=-vo-	!	!	!	!	!	!	!	!
.	.	.	.	.	.	.	.	.	8BB/	-vo-	-vo-	8d\	-Vo-	-Vo-	.	.	.	.	.	.	.	.
4AA/	.	.	4cc/	.	.	4cc/	.	.	4AA/	-ca-	-ca-	4c\	-ca-	-ca-	8g\	-xu-	-xu-	8a\	-xu-	-xu-	.	.
.	.	.	.	.	.	.	.	.	.	.	.	.	.	.	8g\	-les	-les	8a\	-les	-les	.	.
4BB/	.	.	4dd/	.	.	4dd/	.	.	4BB/	-ta	-ta	4d\	-ta	-ta	8g\	fi-	fi-	8b\	fi-	fi-	.	.
.	.	.	.	.	.	.	.	.	.	.	.	.	.	.	16g\	-li-	-li-	16b\	-li-	-li-	.	.
!	!	!	!	!	!	!	!	!	!	!	!	!	!	!	!	!	!	!	!LO:MO:mod=-i	!LO:MO:mod=-i	!	!
.	.	.	.	.	.	.	.	.	.	.	.	.	.	.	16g\	-i	-i	16b\	-j	-j	.	.
=21	=21	=21	=21	=21	=21	=21	=21	=21	=21	=21	=21	=21	=21	=21	=21	=21	=21	=21	=21	=21	=21	=21
8C/L	.	.	8ee/L	2.g\	.	8ee/L	2.g\	.	8C/L	no-	no-	8e\L	no-	no-	4g\	E-	He-	8cc\L	E-	He-	2.ryy	2.ryy
8BB/J	.	.	8dd/J	.	.	8dd/J	.	.	8BB/J	.	.	8d\J	.	.	.	.	.	8b\J	.	.	.	.
4C/	.	.	2ee/	.	.	2ee/	.	.	2C/	-stra	-stra	2e\	-stra	-stra	2g\	-vae	-vae	2cc\	-vae	-vae	.	.
4CC/	.	.	.	.	.	.	.	.	.	.	.	.	.	.	.	.	.	.	.	.	.	.
*	*	*	*v	*v	*	*	*	*	*	*	*	*	*	*	*	*	*	*	*	*	*	*
*	*	*	*	*	*v	*v	*	*	*	*	*	*	*	*	*	*	*	*	*	*	*
=22	=22	=22	=22	=22	=22	=22	=22	=22	=22	=22	=22	=22	=22	=22	=22	=22	=22	=22	=22	=22
*tremolo	*	*	*tremolo	*	*	*	*	*	*	*	*	*	*	*	*	*	*	*	*	*
8E\L	.	.	8cc\L	.	16cc\LL	.	8E\	il-	il-	8G/	il-	il-	4cc\	ad	ad	4cc\	ad	ad	2.ryy	2.ryy
.	.	.	.	.	16dd\	.	.	.	.	.	.	.	.	.	.	.	.	.	.	.
8E\	.	.	8cc\	.	16ee\	.	8E\	-los	-los	8G/	-los	-los	.	.	.	.	.	.	.	.
.	.	.	.	.	16dd\JJ	.	.	.	.	.	.	.	.	.	.	.	.	.	.	.
8E\	.	.	8cc\	.	8cc\L	.	4E\	tu-	tu-	8G/	tu-	tu-	4cc\	te	te	8cc\L	te	te	.	.
8E\	.	.	8cc\	.	8gg\	.	.	.	.	8G/	-os	-os	.	.	.	8gg\J	.	.	.	.
8E\	.	.	8cc\	.	8ff\	.	8E\	-os	-os	4G/	mi-	mi-	8cc\	sus-	sus-	8ff\	Sus-	sus-	.	.
8E\J	.	.	8cc\J	.	8ee\J	.	8E\	mi-	mi-	.	.	.	8cc\	-pi-	-pi-	8ee\	-pi-	-pi-	.	.
=23	=23	=23	=23	=23	=23	=23	=23	=23	=23	=23	=23	=23	=23	=23	=23	=23	=23	=23	=23	=23
8F\L	.	.	8cc\L	.	8ee\L	.	8F\	-se-	-se-	8A\	-se-	-se-	4cc\	-ra-	-ra-	8ee\L	-ra-	-ra-	2.ryy	2.ryy
8F\	.	.	8cc\	.	8dd\J	.	8F\	-ri-	-ri-	8A\	-ri-	-ri-	.	.	.	8dd\J	.	.	.	.
8F\	.	.	8cc\	.	2dd\	.	4F\	-cor-	-cor-	8A\	-cor-	-cor-	4cc\	-mus	-mus	4dd\	-mus	-mus	.	.
8F\	.	.	8cc\	.	.	.	.	.	.	8A\	-des	-des	.	.	.	.	.	.	.	.
8F\	.	.	8cc\	.	.	.	4F\	-des	-des	8A\	oc-	oc-	4cc\	ge-	ge-	4dd\	ge-	ge-	.	.
8F\J	.	.	8cc\J	.	.	.	.	.	.	8A\	-cu-	-cu-	.	.	.	.	.	.	.	.
*	*	*	*Xtremolo	*	*	*	*	*	*	*	*	*	*	*	*	*	*	*	*	*
!	!	!	!	!	!LO:LB:g=original	!	!	!	!	!LO:LB:g=original	!	!	!	!	!	!	!	!	!	!
=24	=24	=24	=24	=24	=24	=24	=24	=24	=24	=24	=24	=24	=24	=24	=24	=24	=24	=24	=24	=24
!	!	!	!	!	!	!	!	!	!	!	!	!	!	!	!	!LO:N:vis=8	!	!	!	!
8G\L	.	.	16b\LL	.	16dd\LL	.	8G\	oc-	oc-	8B\	-los	-los	4b\	-men-	-men-	4dd\	-men-	-men-	2.ryy	2.ryy
.	.	.	16cc\	.	16ee\	.	.	.	.	.	.	.	.	.	.	.	.	.	.	.
8G\	.	.	16dd\	.	16ff\	.	8G\	-cu-	-cu-	8B\	ad	ad	.	.	.	.	.	.	.	.
.	.	.	16cc\JJ	.	16ee\JJ	.	.	.	.	.	.	.	.	.	.	.	.	.	.	.
8G\	.	.	8b\L	.	8dd\L	.	8G\	-los	-los	8B\	nos	nos	4g\	-tes	-tes	8dd\L	-tes	-tes	.	.
8G\	.	.	8ff\	.	8aa\	.	8G\	ad	ad	8f\	con-	con-	.	.	.	8aa\J	.	.	.	.
8G\	.	.	8ee\	.	8gg\	.	8G\	nos	nos	8e\L	-ver-	-ver-	4g\	et	et	8gg\L	et	et	.	.
8G\J	.	.	8dd\J	.	8ff\J	.	8G\	con-	con-	8d\J	.	.	.	.	.	8ff\J	.	.	.	.
*Xtremolo	*	*	*	*	*	*	*	*	*	*	*	*	*	*	*	*	*	*	*	*
!	!	!	!	!	!	!	!LO:LB:g=original	!	!	!	!	!	!LO:LB:g=original	!	!	!LO:LB:g=original	!	!	!	!
=25	=25	=25	=25	=25	=25	=25	=25	=25	=25	=25	=25	=25	=25	=25	=25	=25	=25	=25	=25	=25
4c\	.	.	8dd\L	.	8ff\L	.	4c\	-ver-	-ver-	2.e\	-te	-te	4g\	flen-	flen-	8ff\L	flen-	flen-	2.ryy	2.ryy
.	.	.	8cc\J	.	8ee\J	.	.	.	.	.	.	.	.	.	.	8ee\J	.	.	.	.
4C/	.	.	2cc\	.	2ee\	.	4C/	-te	-te	.	.	.	2g\	-tes	-tes	2ee\	-tes	-tes	.	.
4r	.	.	.	.	.	.	4r	.	.	.	.	.	.	.	.	.	.	.	.	.
!	!	!	!LO:LB:g=original	!	!	!	!	!	!	!	!	!	!	!	!	!	!	!	!	!
=26	=26	=26	=26	=26	=26	=26	=26	=26	=26	=26	=26	=26	=26	=26	=26	=26	=26	=26	=26	=26
*	*	*	*tremolo	*	*	*	*	*	*	*	*	*	*	*	*	*	*	*	*	*
4r	.	.	8cc\L	.	16cc\LL	.	4E\	et	et	4e\	et	et	8cc\	in	in	8gg\	in	in	2.ryy	2.ryy
.	.	.	.	.	16dd\	.	.	.	.	.	.	.	.	.	.	.	.	.	.	.
.	.	.	8cc\	.	16ee\	.	.	.	.	.	.	.	8cc\	hac	hac	8gg\	hac	hac	.	.
.	.	.	.	.	16dd\JJ	.	.	.	.	.	.	.	.	.	.	.	.	.	.	.
4E\	.	.	8cc\	.	8cc\L	.	8E\	Je-	Je-	8e\	Je-	Je-	8cc\	la-	la-	8gg\	la-	la-	.	.
.	.	.	8cc\	.	8bb-X\	.	8E\	-sum	-sum	8e\	-su(m)	-sum	8cc\	-chry-	-cri-	8gg\	-chrÿ-	-cri-	.	.
4E\	.	.	8cc\	.	8bb-\	.	8E\	be-	be-	8g\	be-	be-	8cc\	-ma-	-ma-	8bb-X\	-ma-	-ma-	.	.
.	.	.	8cc\J	.	8bb-\J	.	8E\	-ne-	-ne-	8g\	-ne-	-ne-	8cc\	-rum	-rum	8bb-\	-rum	-rum	.	.
=27	=27	=27	=27	=27	=27	=27	=27	=27	=27	=27	=27	=27	=27	=27	=27	=27	=27	=27	=27	=27
.	.	.	.	.	8qqgg#X/	.	.	.	.	.	.	.	.	.	.	8qqgg#X/	.	.	.	.
4F\	.	.	8cc\L	.	4aa\	.	4F\	-dic-	-dic-	4f\	-dic-	-dic-	4cc\	Val-	val-	4aa\	Val-	val-	2.ryy	2.ryy
.	.	.	8cc\	.	.	.	.	.	.	.	.	.	.	.	.	.	.	.	.	.
4F\	.	.	8cc\	.	4aa\	.	4F\	-tum	-tum	4f\	-tum	-tum	4cc\	-le	-le	4aa\	-le	-le	.	.
.	.	.	8cc\J	.	.	.	.	.	.	.	.	.	.	.	.	.	.	.	.	.
*	*	*	*Xtremolo	*	*	*	*	*	*	*	*	*	*	*	*	*	*	*	*	*
4r	.	.	16ee\LL	.	16ggn\LL	.	4r	.	.	4r	.	.	4r	.	.	4r	.	.	.	.
.	.	.	16dd\	.	16ff\	.	.	.	.	.	.	.	.	.	.	.	.	.	.	.
.	.	.	16cc\	.	16ee\	.	.	.	.	.	.	.	.	.	.	.	.	.	.	.
!	!	!	!	!	!	!	!	!	!	!LO:TX:t=P:problem=jeden skreślony takt:mod=	!	!	!	!	!	!	!	!	!	!
.	.	.	16b\JJ	.	16dd\JJ	.	.	.	.	.	.	.	.	.	.	.	.	.	.	.
!	!	!	!	!	!	!	!	!	!	!LO:LB:g=original	!	!	!	!	!	!	!	!	!	!
=28	=28	=28	=28	=28	=28	=28	=28	=28	=28	=28	=28	=28	=28	=28	=28	=28	=28	=28	=28	=28
*	*	*	*	*	*	*	*	*	*	*	*	*	*	*	*	*	*ij	*ij	*	*
8E\L	.	.	4cc\	.	8cc\L	.	8E\	fru-	fru-	8G/	fru-	fru-	[<4cc\	Val-	val-	8cc\L	Val-	val-	2.ryy	2.ryy
8F\J	.	.	.	.	8dd\J	.	8F\	-ctum	-ctum	8A/	-ctu(m)	-ctum	.	.	.	8dd\J	.	.	.	.
!	!	!	!	!	!LO:TX:t=t:mod=	!	!	!	!	!	!	!	!	!	!	!	!	!	!	!
!	!	!	!	!	!LO:MO:mod=2ddT\	!	!	!	!	!	!	!	!	!	!	!	!	!	!	!
4G\	.	.	4cc\	.	2dd\	.	8G\	ven-	ven-	8G/	Ven-	ven-	4cc\]	.	.	2dd\	-le	-le	.	.
*	*	*	*	*	*	*	*	*	*	*	*	*	*	*	*	*	*Xij	*Xij	*	*
.	.	.	.	.	.	.	8G\	-tris	-tris	8G/	-tris	-tris	.	.	.	.	.	.	.	.
4GG/	.	.	4b\	.	.	.	4GG/	tu-	tu-	8G/	tu-	tu-	4b\	-le	-le	.	.	.	.	.
.	.	.	.	.	.	.	.	.	.	16G/	-i	-i	.	.	.	.	.	.	.	.
.	.	.	.	.	.	.	.	.	.	16G/	no-	no-	.	.	.	.	.	.	.	.
=29	=29	=29	=29	=29	=29	=29	=29	=29	=29	=29	=29	=29	=29	=29	=29	=29	=29	=29	=29	=29
*	*	*	*tremolo	*	*	*	*	*	*	*	*	*	*	*	*	*	*	*	*	*
4C\	.	.	8cc\L	.	16cc\LL	.	8C/	-i	-i	8G/	-bis	-bis	8cc\	in	in	8ee\	in	in	2.ryy	2.ryy
.	.	.	.	.	16dd\	.	.	.	.	.	.	.	.	.	.	.	.	.	.	.
.	.	.	8cc\	.	16ee\	.	8C/	no-	no-	8G/	post	post	8cc\	hac	hac	8ee\	hac	hac	.	.
.	.	.	.	.	16dd\JJ	.	.	.	.	.	.	.	.	.	.	.	.	.	.	.
!	!	!	!	!	!	!	!	!	!	!	!	!	!LO:LB:g=original	!	!	!	!	!	!	!
4E\	.	.	8cc\	.	8cc\L	.	8E\	-bis	-bis	8e\	hoc	hoc	8cc\	la-	la-	8gg\	la-	la-	.	.
.	.	.	8cc\	.	8bb-X\	.	8E\	post	post	8e\	e-	e-	8cc\	-chrÿ-	-cri-	8gg\	-chrÿ-	-cri-	.	.
!	!	!	!	!	!	!	!	!	!	!	!LO:SIC:v:l:t=-xi-	!	!	!	!	!	!	!	!	!
4E\	.	.	8cc\	.	8bb-\	.	8E\	hoc	hoc	8g\	-xti-	-xi-	8cc\	-ma-	-ma-	8bb-X\	-ma-	-ma-	.	.
.	.	.	8cc\J	.	8bb-\J	.	8E\	E-	e-	8g\	-li-	-li-	8cc\	-ru(m)	-rum	8bb-\	-rum	-rum	.	.
*	*	*	*Xtremolo	*	*	*	*	*	*	*	*	*	*	*	*	*	*	*	*	*
!	!	!	!	!	!LO:LB:g=original	!	!LO:LB:g=original	!	!	!	!	!	!	!	!	!LO:LB:g=original	!	!	!	!
=30	=30	=30	=30	=30	=30	=30	=30	=30	=30	=30	=30	=30	=30	=30	=30	=30	=30	=30	=30	=30
.	.	.	.	.	8qqgg#X/	.	.	.	.	.	.	.	.	.	.	8qqgg#X/	.	.	.	.
4F\	.	.	4cc\	.	4aa\	.	8F\	-xi-	-xi-	4f\	-um	-um	4cc\	Val-	val-	4aa\	Val-	val-	2.ryy	2.ryy
.	.	.	.	.	.	.	8F\	-li-	-li-	.	.	.	.	.	.	.	.	.	.	.
4F\	.	.	8cc\L	.	8aa\L	.	4F\	-um	-um	4r	.	.	8cc\	-le	-le	8aa\	-le	-le	.	.
.	.	.	16aa\L	.	16ccc\L	.	.	.	.	.	.	.	8r	.	.	8r	.	.	.	.
.	.	.	16gg\JJ	.	16bb\JJ	.	.	.	.	.	.	.	.	.	.	.	.	.	.	.
.	.	.	8qqbb/	.	8qqddd/	.	.	.	.	.	.	.	.	.	.	.	.	.	.	.
4r	.	.	8aa\L	.	8ccc\L	.	4r	.	.	4r	.	.	4r	.	.	4r	.	.	.	.
.	.	.	16gg\L	.	16bb\L	.	.	.	.	.	.	.	.	.	.	.	.	.	.	.
.	.	.	16ff\JJ	.	16aa\JJ	.	.	.	.	.	.	.	.	.	.	.	.	.	.	.
!	!	!	!	!	!	!	!	!	!	!LO:LB:g=original	!	!	!	!	!	!	!	!	!	!
=31	=31	=31	=31	=31	=31	=31	=31	=31	=31	=31	=31	=31	=31	=31	=31	=31	=31	=31	=31	=31
8E\L	.	.	16ee\LL	.	16gg\LL	.	8E\L	o-	o-	4r	.	.	4r	.	.	4r	.	.	2.ryy	2.ryy
.	.	.	16ff\	.	16aa\	.	.	.	.	.	.	.	.	.	.	.	.	.	.	.
8F\J	.	.	16ee\	.	16gg\	.	8F\J	.	.	.	.	.	.	.	.	.	.	.	.	.
.	.	.	16dd\JJ	.	16ff\JJ	.	.	.	.	.	.	.	.	.	.	.	.	.	.	.
*	*	*	*	*	*	*	*	*	*	*	*	*	*	*ij	*ij	*	*ij	*ij	*	*
4G\	.	.	4cc\	.	4ee\	.	4G\	-Sten-	-sten-	4g\	O-	o-	4cc\	Val-	val-	4ee\	Val-	val-	.	.
4GG/	.	.	4b\	.	4dd\	.	4GG/	.	.	4G/	-Sten-	-sten-	4b\	.	.	4dd\	.	.	.	.
!LO:LB:g=original	!	!	!LO:LB:g=original	!	!	!	!	!	!	!	!	!	!	!	!	!	!	!	!	!
=32	=32	=32	=32	=32	=32	=32	=32	=32	=32	=32	=32	=32	=32	=32	=32	=32	=32	=32	=32	=32
2C/	.	.	(16e/LL	.	(16ee\LL	.	2C/	-de	-de	4G/	-de	-de	4cc\	-le	-le	4ee\	-le	-le	2.ryy	2.ryy
.	.	.	16f/	.	16ff\	.	.	.	.	.	.	.	.	.	.	.	.	.	.	.
.	.	.	16g/	.	16gg\	.	.	.	.	.	.	.	.	.	.	.	.	.	.	.
.	.	.	16a/JJ)	.	16aa\JJ)	.	.	.	.	.	.	.	.	.	.	.	.	.	.	.
!	!	!	!LO:SIC:v:s=8g|/L	!	!	!	!	!	!	!	!	!	!	!	!	!	!	!	!	!
.	.	.	8g'/L	.	8gg|\L	.	.	.	.	4r	.	.	4r	.	.	4r	.	.	.	.
!	!	!	!LO:SIC:v:s=8g|/J	!	!	!	!	!	!	!	!	!	!	!	!	!	!	!	!	!
.	.	.	8g'/J	.	8gg|\J	.	.	.	.	.	.	.	.	.	.	.	.	.	.	.
*	*	*	*	*	*	*	*	*	*	*	*ij	*ij	*	*	*	*	*X	*X	*	*
!	!	!	!LO:SIC:v:s=4d|/	!	!	!	!	!	!	!	!	!	!	!	!	!	!	!	!	!
4GG/	.	.	4d'/	.	4dd|\	.	4GG/	o-	o-	8G/	O-	o-	4b\	Val-	val-	4dd\	Val-	val-	.	.
.	.	.	.	.	.	.	.	.	.	8G/	-Sten-	-sten-	.	.	.	.	.	.	.	.
=33	=33	=33	=33	=33	=33	=33	=33	=33	=33	=33	=33	=33	=33	=33	=33	=33	=33	=33	=33	=33
2C/	.	.	(16e/LL	.	(16ee\LL	.	2C/	-Sten-	-sten-	4G/	-de	-de	4cc\	-le	-le	4ee\	-le	-le	2.ryy	2.ryy
*	*	*	*	*	*	*	*	*	*	*	*Xij	*Xij	*	*Xij	*Xij	*	*Xij	*Xij	*	*
.	.	.	16f/	.	16ff\	.	.	.	.	.	.	.	.	.	.	.	.	.	.	.
.	.	.	16g/	.	16gg\	.	.	.	.	.	.	.	.	.	.	.	.	.	.	.
.	.	.	16a/JJ)	.	16aa\JJ)	.	.	.	.	.	.	.	.	.	.	.	.	.	.	.
!	!	!	!LO:SIC:v:s=8g|/L	!	!	!	!	!	!	!	!	!	!	!	!	!	!	!	!	!
.	.	.	8g'/L	.	8gg|\L	.	.	.	.	4r	.	.	4r	.	.	4r	.	.	.	.
!	!	!	!LO:SIC:v:s=8g|/J	!	!	!	!	!	!	!	!	!	!	!	!	!	!	!	!	!
.	.	.	8g'/J	.	8gg|\J	.	.	.	.	.	.	.	.	.	.	.	.	.	.	.
!	!	!	!LO:SIC:v:s=4d|/	!	!LO:SIC:v:s=4dd|\	!	!	!	!	!	!	!	!	!	!	!	!	!	!	!
4GG/	.	.	4d'/	.	4dd\	.	4GG/	.	.	4G/	o-	o-	4b\	Val-	val-	4dd\	Val-	val-	.	.
=34	=34	=34	=34	=34	=34	=34	=34	=34	=34	=34	=34	=34	=34	=34	=34	=34	=34	=34	=34	=34
!LO:TX:t=P:problem=mixed beam:mod=	!	!	!	!	!	!	!	!	!	!	!	!	!	!	!	!	!	!	!	!
8C/L	.	.	8g/L	.	16ee\LL	.	8C\L	.	.	8G/L	-Sten-	-sten-	8cc\L	.	.	8ee\L	.	.	2.ryy	2.ryy
.	.	.	.	.	16cc\	.	.	.	.	.	.	.	.	.	.	.	.	.	.	.
8F\J	.	.	8a/J	.	16ff\	.	8F\J	.	.	8A/J	.	.	8dd\J	.	.	8ff\J	.	.	.	.
.	.	.	.	.	16dd\JJ	.	.	.	.	.	.	.	.	.	.	.	.	.	.	.
4G\	.	.	4e/	.	4cc\	.	4G\	.	.	2G/	.	.	4cc\	.	.	4ee\	.	.	.	.
4GG/	.	.	4d/	.	4b\	.	4GG/	.	.	.	.	.	4b\	.	.	4dd\	.	.	.	.
!	!	!	!	!	!LO:LB:g=original	!	!	!	!	!	!	!	!LO:LB:g=original	!	!	!	!	!	!	!
=35	=35	=35	=35	=35	=35	=35	=35	=35	=35	=35	=35	=35	=35	=35	=35	=35	=35	=35	=35	=35
4C/	.	.	(16e/LL	.	(16ee\LL	.	4C/	-de	-de	4G/	-de	-de	4cc\	-le	-le	4ee\	-le	-le	2.ryy	2.ryy
.	.	.	16f/	.	16ff\	.	.	.	.	.	.	.	.	.	.	.	.	.	.	.
.	.	.	16g/	.	16gg\	.	.	.	.	.	.	.	.	.	.	.	.	.	.	.
.	.	.	16a/JJ)	.	16aa\JJ)	.	.	.	.	.	.	.	.	.	.	.	.	.	.	.
!	!	!	!LO:SIC:v:s=8g|/L	!	!LO:SIC:v:s=8gg|\L	!	!	!	!	!	!	!	!	!	!	!	!	!	!	!
4r	.	.	8g'/L	.	8gg'\L	.	4r	.	.	4r	.	.	4r	.	.	4r	.	.	.	.
!	!	!	!LO:SIC:v:s=8g|/J	!	!LO:SIC:v:s=8gg|\J	!	!	!	!	!	!	!	!	!	!	!	!	!	!	!
.	.	.	8g'/J	.	8gg'\J	.	.	.	.	.	.	.	.	.	.	.	.	.	.	.
*	*	*	*	*	*	*	*	*ij	*ij	*	*ij	*ij	*	*ij	*ij	*	*ij	*ij	*	*
!	!	!	!LO:SIC:v:s=4d|/	!	!LO:SIC:v:s=4dd|\	!	!	!	!	!	!	!	!	!	!	!	!	!	!	!
4G\	.	.	4d'/	.	4dd\	.	4G\	o-	o-	8G/	o-	o-	4b\	Val-	val-	4dd\	Val-	val-	.	.
.	.	.	.	.	.	.	.	.	.	8G/	-Sten-	-sten-	.	.	.	.	.	.	.	.
=36	=36	=36	=36	=36	=36	=36	=36	=36	=36	=36	=36	=36	=36	=36	=36	=36	=36	=36	=36	=36
4c\	.	.	(16e/LL	.	(16ee\LL	.	8c\	-Sten-	-sten-	4G/	-de	-de	4cc\	-le	-le	4ee\	-le	-le	2.ryy	2.ryy
*	*	*	*	*	*	*	*	*	*	*	*Xij	*Xij	*	*Xij	*Xij	*	*	*	*	*
.	.	.	16f/	.	16ff\	.	.	.	.	.	.	.	.	.	.	.	.	.	.	.
.	.	.	16g/	.	16gg\	.	8c\	-de	-de	.	.	.	.	.	.	.	.	.	.	.
*	*	*	*	*	*	*	*	*Xij	*Xij	*	*	*	*	*	*	*	*	*	*	*
.	.	.	16a/JJ)	.	16aa\JJ)	.	.	.	.	.	.	.	.	.	.	.	.	.	.	.
!	!	!	!LO:SIC:v:s=8g|/L	!	!LO:SIC:v:s=8gg|\L	!	!	!	!	!	!	!	!	!	!	!	!	!	!	!
4r	.	.	8g'/L	.	8gg'\L	.	4r	.	.	4r	.	.	4r	.	.	4r	.	.	.	.
!	!	!	!LO:SIC:v:s=8g|/J	!	!LO:SIC:v:s=8gg|\J	!	!	!	!	!	!	!	!	!	!	!	!	!	!	!
.	.	.	8g'/J	.	8gg'\J	.	.	.	.	.	.	.	.	.	.	.	.	.	.	.
!	!	!	!LO:SIC:v:s=4d|/	!	!LO:SIC:v:s=4dd|\	!	!	!	!	!	!	!	!	!	!	!	!	!	!	!
4G\	.	.	4d/	.	4dd\	.	4G\	o-	o-	4G/	o-	o-	4b\	Val-	val-	4dd\	Val-	val-	.	.
!	!	!	!LO:LB:g=original	!	!	!	!	!	!	!LO:LB:g=original	!	!	!	!	!	!	!	!	!	!
=37	=37	=37	=37	=37	=37	=37	=37	=37	=37	=37	=37	=37	=37	=37	=37	=37	=37	=37	=37	=37
!	!	!	!	!	!	!	!	!	!	!	!	!	!LO:TX:b:t=c:mod=	!	!	!	!	!	!	!
4c\	.	.	8e/L	.	8ee\L	.	4c\	-Sten-	-sten-	4G/	-Sten-	-sten-	4cc\	.	.	4ee\	-le	-le	2.ryy	2.ryy
*	*	*	*	*	*	*	*	*	*	*	*	*	*	*	*	*	*Xij	*Xij	*	*
.	.	.	16a/L	.	16ccc\L	.	.	.	.	.	.	.	.	.	.	.	.	.	.	.
.	.	.	16cc/JJ	.	16aa\JJ	.	.	.	.	.	.	.	.	.	.	.	.	.	.	.
4d\	4	.	4b/	.	4gg\	.	4d\	.	.	4G/	.	.	4b\	.	.	2dd\	Val-	val-	.	.
!	!	!	!LO:TX:t=P:problem=jeden takt skreślony:mod=	!	!	!	!	!	!	!	!	!	!	!	!	!	!	!	!	!
4D/	#	.	4a/	.	4ff#X\	.	4D\	.	.	4F#X/	.	.	4a\	.	.	.	.	.	.	.
!	!	!	!	!	!	!	!LO:LB:g=original	!	!	!LO:LB:g=original	!	!	!	!	!	!LO:LB:g=original	!	!	!	!
=38	=38	=38	=38	=38	=38	=38	=38	=38	=38	=38	=38	=38	=38	=38	=38	=38	=38	=38	=38	=38
4G\	.	.	8dd\L	.	16gg\LL	.	4G\	-de	-de	4G/	-de	-de	4b\	-le	-le	4dd\	-le	-le	2.ryy	2.ryy
.	.	.	.	.	16ff#X\	.	.	.	.	.	.	.	.	.	.	.	.	.	.	.
.	.	.	8dd\	.	16gg\	.	.	.	.	.	.	.	.	.	.	.	.	.	.	.
.	.	.	.	.	16aa\JJ	.	.	.	.	.	.	.	.	.	.	.	.	.	.	.
!	!	!	!	!	!LO:TX:t=P:problem=mixed beam:mod=	!	!	!	!	!	!	!	!	!	!	!	!	!	!	!
4B\	.	.	8dd\	.	8gg\L	.	4r	.	.	4r	.	.	4r	.	.	4r	.	.	.	.
.	.	.	8dd\	.	8bb\	.	.	.	.	.	.	.	.	.	.	.	.	.	.	.
4G\	.	.	8dd\	.	8b/	.	4r	.	.	4r	.	.	4r	.	.	4r	.	.	.	.
.	.	.	8b\J	.	8dd/J	.	.	.	.	.	.	.	.	.	.	.	.	.	.	.
=39	=39	=39	=39	=39	=39	=39	=39	=39	=39	=39	=39	=39	=39	=39	=39	=39	=39	=39	=39	=39
!	!	!	!	!	!	!	!LO:TX:a:i:t=35:mod=.	!	!	!LO:TX:a:i:t=35:mod=	!	!	!LO:TX:a:i:t=35:mod=	!	!	!	!	!	!	!
4A\	.	.	8cc\L	.	16cc\LL	.	2.r	.	.	2.r	.	.	2.r	.	.	1.r	.	.	2.ryy	2.ryy
.	.	.	.	.	16b\	.	.	.	.	.	.	.	.	.	.	.	.	.	.	.
.	.	.	8cc\	.	16cc\	.	.	.	.	.	.	.	.	.	.	.	.	.	.	.
.	.	.	.	.	16dd\JJ	.	.	.	.	.	.	.	.	.	.	.	.	.	.	.
4F#X\	.	.	8cc\	.	8cc\L	.	.	.	.	.	.	.	.	.	.	.	.	.	.	.
.	.	.	8cc\	.	8ee\	.	.	.	.	.	.	.	.	.	.	.	.	.	.	.
4F#\	.	.	8cc\	.	8a\	.	.	.	.	.	.	.	.	.	.	.	.	.	.	.
.	.	.	8a\J	.	8cc\J	.	.	.	.	.	.	.	.	.	.	.	.	.	.	.
!	!	!	!	!	!LO:LB:g=original	!	!	!	!	!	!	!	!	!	!	!	!	!	!	!
=40	=40	=40	=40	=40	=40	=40	=40	=40	=40	=40	=40	=40	=40	=40	=40	=40	=40	=40	=40	=40
4G\	.	.	16b\LL	.	16b\LL	.	2.r	.	.	2.r	.	.	2.r	.	.	.	.	.	2.ryy	2.ryy
.	.	.	16dd\	.	16dd\	.	.	.	.	.	.	.	.	.	.	.	.	.	.	.
.	.	.	16ee\	.	16ee\	.	.	.	.	.	.	.	.	.	.	.	.	.	.	.
.	.	.	16ff#X\JJ	.	16ff#X\JJ	.	.	.	.	.	.	.	.	.	.	.	.	.	.	.
4r	.	.	16gg\LL	.	16gg\LL	.	.	.	.	.	.	.	.	.	.	.	.	.	.	.
.	.	.	16ff#\	.	16ff#\	.	.	.	.	.	.	.	.	.	.	.	.	.	.	.
.	.	.	16ee\	.	16ee\	.	.	.	.	.	.	.	.	.	.	.	.	.	.	.
.	.	.	16dd\JJ	.	16dd\JJ	.	.	.	.	.	.	.	.	.	.	.	.	.	.	.
4c\	.	.	16cc/LL	.	16ee\LL	.	.	.	.	.	.	.	.	.	.	.	.	.	.	.
.	.	.	16b/	.	16dd\	.	.	.	.	.	.	.	.	.	.	.	.	.	.	.
.	.	.	16a/	.	16cc\	.	.	.	.	.	.	.	.	.	.	.	.	.	.	.
!	!	!	!	!	!	!	!	!	!	!	!	!	!	!	!	!LO:TX:a:i:t=Solo:mod=	!	!	!	!
.	.	.	16g/JJ	.	16b\JJ	.	.	.	.	.	.	.	.	.	.	.	.	.	.	.
!	!	!	!LO:LB:g=original	!	!	!	!	!	!	!	!	!	!	!	!	!	!	!	!	!
=41	=41	=41	=41	=41	=41	=41	=41	=41	=41	=41	=41	=41	=41	=41	=41	=41	=41	=41	=41	=41
!	!	!	!LO:TX:t=t:mod=	!	!LO:TX:t=t:mod=	!	!	!	!	!	!	!	!	!	!	!	!	!	!	!
!	!	!	!LO:MO:mod=4gT/	!	!LO:MO:mod=4bt\	!	!	!	!	!	!	!	!	!	!	!	!	!	!	!
4d\	.	.	4g/	.	4b\	.	2.r	.	.	2.r	.	.	2.r	.	.	4r	.	.	2.ryy	2.ryy
4D\	.	.	4f#X/	.	4a\	.	.	.	.	.	.	.	.	.	.	4r	.	.	.	.
4r	.	.	4r	.	4r	.	.	.	.	.	.	.	.	.	.	8r	.	.	.	.
!	!	!	!	!	!	!	!	!	!	!	!	!	!	!	!	!LO:MO:mod=!LO&colon;TX&colon;i&colon;t=Solo	!	!	!	!
!	!	!	!	!	!	!	!	!	!	!	!	!	!	!	!	!null	!	!	!	!
.	.	.	.	.	.	.	.	.	.	.	.	.	.	.	.	8dd\	O	O	.	.
=42	=42	=42	=42	=42	=42	=42	=42	=42	=42	=42	=42	=42	=42	=42	=42	=42	=42	=42	=42	=42
!LO:TX:a:i:t=Solo	!	!LO:DY:b:t=po.:mod=	!LO:TX:a:i:t=22:mod=	!	!LO:TX:a:i:t=22.:mod=	!	!	!	!	!	!	!	!	!	!	!	!	!	!	!
4G|\	.	p	0.r	.	0.r	.	2.r	.	.	2.r	.	.	2.r	.	.	8dd\L	Cle-	cle-	2.ryy	2.ryy
.	.	.	.	.	.	.	.	.	.	.	.	.	.	.	.	8gg\J	.	.	.	.
4r	.	.	.	.	.	.	.	.	.	.	.	.	.	.	.	8ff#X\L	.	.	.	.
.	.	.	.	.	.	.	.	.	.	.	.	.	.	.	.	8ee\J	.	.	.	.
4G|\	.	.	.	.	.	.	.	.	.	.	.	.	.	.	.	8dd\	-mens	-mens	.	.
.	.	.	.	.	.	.	.	.	.	.	.	.	.	.	.	8dd\	o	o	.	.
=43	=43	=43	=43	=43	=43	=43	=43	=43	=43	=43	=43	=43	=43	=43	=43	=43	=43	=43	=43	=43
4E|\	.	.	.	.	.	.	2.r	.	.	2.r	.	.	2.r	.	.	4dd\	pi-	pi-	2.ryy	2.ryy
4F#X|\	.	.	.	.	.	.	.	.	.	.	.	.	.	.	.	4cc\	.	.	.	.
4G|\	.	.	.	.	.	.	.	.	.	.	.	.	.	.	.	4b\	-a	-a	.	.
!LO:LB:g=original	!	!	!	!	!	!	!	!	!	!	!	!	!	!	!	!	!	!	!	!
=44	=44	=44	=44	=44	=44	=44	=44	=44	=44	=44	=44	=44	=44	=44	=44	=44	=44	=44	=44	=44
4c\|	.	.	.	.	.	.	2.r	.	.	2.r	.	.	2.r	.	.	8a\L	o	o	2.ryy	2.ryy
.	.	.	.	.	.	.	.	.	.	.	.	.	.	.	.	8b\J	.	.	.	.
4r	.	.	.	.	.	.	.	.	.	.	.	.	.	.	.	8cc\L	.	.	.	.
.	.	.	.	.	.	.	.	.	.	.	.	.	.	.	.	8dd\J	.	.	.	.
!	!	!	!	!	!	!	!	!	!	!	!	!	!	!	!	!LO:TX:t=P:problem=mixed beam:mod=	!	!	!	!
4c\|	.	.	.	.	.	.	.	.	.	.	.	.	.	.	.	8ee\L	.	.	.	.
.	.	.	.	.	.	.	.	.	.	.	.	.	.	.	.	8g/J	.	.	.	.
!	!	!	!	!	!	!	!	!	!	!	!	!	!	!	!	!LO:LB:g=original	!	!	!	!
=45	=45	=45	=45	=45	=45	=45	=45	=45	=45	=45	=45	=45	=45	=45	=45	=45	=45	=45	=45	=45
4d|\	.	.	.	.	.	.	2.r	.	.	2.r	.	.	2.r	.	.	4g/	pi-	pi-	2.ryy	2.ryy
4D|\	.	.	.	.	.	.	.	.	.	.	.	.	.	.	.	4f#X/	-a	-a	.	.
4r	.	.	.	.	.	.	.	.	.	.	.	.	.	.	.	4dd\	o	o	.	.
!!LO:MO:ori
=46	=46	=46	=46	=46	=46	=46	=46	=46	=46	=46	=46	=46	=46	=46	=46	=46	=46	=46	=46	=46
4G\|	.	.	0.r	.	0.r	.	2.r	.	.	2.r	.	.	2.r	.	.	8dd\L	dul-	dul-	2.ryy	2.ryy
.	.	.	.	.	.	.	.	.	.	.	.	.	.	.	.	8gg\	.	.	.	.
4r	.	.	.	.	.	.	.	.	.	.	.	.	.	.	.	8ff#X\	.	.	.	.
.	.	.	.	.	.	.	.	.	.	.	.	.	.	.	.	8ee\J	.	.	.	.
4G\|	.	.	.	.	.	.	.	.	.	.	.	.	.	.	.	4dd\	-cis	-cis	.	.
=47	=47	=47	=47	=47	=47	=47	=47	=47	=47	=47	=47	=47	=47	=47	=47	=47	=47	=47	=47	=47
2F#X\|	.	.	.	.	.	.	2.r	.	.	2.r	.	.	2.r	.	.	4dd\	Vir	Vir	2.ryy	2.ryy
!	!	!	!	!	!	!	!	!	!	!	!	!	!	!	!	!LO:TX:t=P:problem=fragment zamazany	!	!	!	!
.	.	.	.	.	.	.	.	.	.	.	.	.	.	.	.	4ryy	.	.	.	.
4G\|	.	.	.	.	.	.	.	.	.	.	.	.	.	.	.	4ryy	.	.	.	.
=48	=48	=48	=48	=48	=48	=48	=48	=48	=48	=48	=48	=48	=48	=48	=48	=48	=48	=48	=48	=48
8G\L	.	.	.	.	.	.	2.r	.	.	2.r	.	.	2.r	.	.	4ryy	.	.	2.ryy	2.ryy
8c\J	.	.	.	.	.	.	.	.	.	.	.	.	.	.	.	.	.	.	.	.
4d\	.	.	.	.	.	.	.	.	.	.	.	.	.	.	.	4ryy	.	.	.	.
4D\	.	.	.	.	.	.	.	.	.	.	.	.	.	.	.	4ryy	.	.	.	.
=49	=49	=49	=49	=49	=49	=49	=49	=49	=49	=49	=49	=49	=49	=49	=49	=49	=49	=49	=49	=49
2.G\	.	.	.	.	.	.	2.r	.	.	2.r	.	.	2.r	.	.	4ryy	.	.	2.ryy	2.ryy
.	.	.	.	.	.	.	.	.	.	.	.	.	.	.	.	4ryy	.	.	.	.
.	.	.	.	.	.	.	.	.	.	.	.	.	.	.	.	4ryy	.	.	.	.
!!LO:MO:mod
!! =46	=46	=46	=46	=46	=46	=46	=46	=46	=46	=46	=46	=46	=46	=46	=46	=46	=46	=46	=46	=46
!! 4G\|	.	.	0.r	.	0.r	.	2.r	.	.	2.r	.	.	2.r	.	.	8dd\L	dul-	dul-	2.ryy	2.ryy
!! .	.	.	.	.	.	.	.	.	.	.	.	.	.	.	.	8gg\	.	.	.	.
!! 4r	.	.	.	.	.	.	.	.	.	.	.	.	.	.	.	8ff#X\	.	.	.	.
!! .	.	.	.	.	.	.	.	.	.	.	.	.	.	.	.	8ee\J	.	.	.	.
!! 4G\|	.	.	.	.	.	.	.	.	.	.	.	.	.	.	.	4dd\	-cis	-cis	.	.
!! =47	=47	=47	=47	=47	=47	=47	=47	=47	=47	=47	=47	=47	=47	=47	=47	=47	=47	=47	=47	=47
!! 2F#X\|	.	.	.	.	.	.	2.r	.	.	2.r	.	.	2.r	.	.	4dd\	Vir-	Vir	2.ryy	2.ryy
!! .	.	.	.	.	.	.	.	.	.	.	.	.	.	.	.	4cc\@	.	.	.	.
!! 4G\|	.	.	.	.	.	.	.	.	.	.	.	.	.	.	.	4b\@	-go	.	.	.
!! =48	=48	=48	=48	=48	=48	=48	=48	=48	=48	=48	=48	=48	=48	=48	=48	=48	=48	=48	=48	=48
!! 8G\L	.	.	.	.	.	.	2.r	.	.	2.r	.	.	2.r	.	.	8a/L@	Ma-	.	2.ryy	2.ryy
!! 8c\J	.	.	.	.	.	.	.	.	.	.	.	.	.	.	.	8b/J@	.	.	.	.
!! 4d\	.	.	.	.	.	.	.	.	.	.	.	.	.	.	.	8cc\L@	.	.	.	.
!! .	.	.	.	.	.	.	.	.	.	.	.	.	.	.	.	8dd\J@	.	.	.	.
!! 4D\	.	.	.	.	.	.	.	.	.	.	.	.	.	.	.	8ee\L@	.	.	.	.
!! .	.	.	.	.	.	.	.	.	.	.	.	.	.	.	.	8g\J@	.	.	.	.
!! =49	=49	=49	=49	=49	=49	=49	=49	=49	=49	=49	=49	=49	=49	=49	=49	=49	=49	=49	=49	=49
!! 2.G\	.	.	.	.	.	.	2.r	.	.	2.r	.	.	2.r	.	.	4g/@	-ri-	.	2.ryy	2.ryy
!! .	.	.	.	.	.	.	.	.	.	.	.	.	.	.	.	4f#/@	-a	.	.	.
!! .	.	.	.	.	.	.	.	.	.	.	.	.	.	.	.	4dd\@	Ma-	.	.	.
!!LO:MO:end
=50	=50	=50	=50	=50	=50	=50	=50	=50	=50	=50	=50	=50	=50	=50	=50	=50	=50	=50	=50	=50
2.B\	.	.	0.r	.	0.r	.	2.r	.	.	2.r	.	.	2.r	.	.	4ddsSSS\	-ri-	-ri-	2.ryy	2.ryy
.	.	.	.	.	.	.	.	.	.	.	.	.	.	.	.	4.gg\	.	.	.	.
.	.	.	.	.	.	.	.	.	.	.	.	.	.	.	.	8ff#X\	.	.	.	.
=51	=51	=51	=51	=51	=51	=51	=51	=51	=51	=51	=51	=51	=51	=51	=51	=51	=51	=51	=51	=51
!	!	!	!	!	!	!	!	!	!	!	!	!	!	!	!	!LO:SIC:v:s=8qqdd#/	!	!	!	!
.	.	.	.	.	.	.	.	.	.	.	.	.	.	.	.	8qqee/	.	.	.	.
2.c\	.	.	.	.	.	.	2.r	.	.	2.r	.	.	2.r	.	.	4ee\	.	.	2.ryy	2.ryy
.	.	.	.	.	.	.	.	.	.	.	.	.	.	.	.	2ee\	.	.	.	.
=52	=52	=52	=52	=52	=52	=52	=52	=52	=52	=52	=52	=52	=52	=52	=52	=52	=52	=52	=52	=52
2.A\	.	.	.	.	.	.	2.r	.	.	2.r	.	.	2.r	.	.	4ccsSSs\	.	.	2.ryy	2.ryy
.	.	.	.	.	.	.	.	.	.	.	.	.	.	.	.	4.ff#X\	.	.	.	.
.	.	.	.	.	.	.	.	.	.	.	.	.	.	.	.	8ee\	.	.	.	.
=53	=53	=53	=53	=53	=53	=53	=53	=53	=53	=53	=53	=53	=53	=53	=53	=53	=53	=53	=53	=53
2.B\	.	.	.	.	.	.	2.r	.	.	2.r	.	.	2.r	.	.	4dd\	.	.	2.ryy	2.ryy
.	.	.	.	.	.	.	.	.	.	.	.	.	.	.	.	2dd\	.	.	.	.
=54	=54	=54	=54	=54	=54	=54	=54	=54	=54	=54	=54	=54	=54	=54	=54	=54	=54	=54	=54	=54
2.G\	.	.	0.r	.	0.r	.	2.r	.	.	2.r	.	.	2.r	.	.	4bsSsS\	.	.	2.ryy	2.ryy
.	.	.	.	.	.	.	.	.	.	.	.	.	.	.	.	4.ee\	.	.	.	.
.	.	.	.	.	.	.	.	.	.	.	.	.	.	.	.	8dd\	.	.	.	.
=55	=55	=55	=55	=55	=55	=55	=55	=55	=55	=55	=55	=55	=55	=55	=55	=55	=55	=55	=55	=55
.	.	.	.	.	.	.	.	.	.	.	.	.	.	.	.	8qqdd/	.	.	.	.
2.A\	.	.	.	.	.	.	2.r	.	.	2.r	.	.	2.r	.	.	4cc\	.	.	2.ryy	2.ryy
.	.	.	.	.	.	.	.	.	.	.	.	.	.	.	.	2cc\	.	.	.	.
!	!	!	!	!	!	!	!	!	!	!	!	!	!	!	!	!LO:LB:g=original	!	!	!	!
=56	=56	=56	=56	=56	=56	=56	=56	=56	=56	=56	=56	=56	=56	=56	=56	=56	=56	=56	=56	=56
2.F#X\	.	.	.	.	.	.	2.r	.	.	2.r	.	.	2.r	.	.	4asSSS\	.	.	2.ryy	2.ryy
.	.	.	.	.	.	.	.	.	.	.	.	.	.	.	.	4.dd\	.	.	.	.
.	.	.	.	.	.	.	.	.	.	.	.	.	.	.	.	8ccn\	.	.	.	.
!LO:LB:g=original	!	!	!	!	!	!	!	!	!	!	!	!	!	!	!	!	!	!	!	!
=57	=57	=57	=57	=57	=57	=57	=57	=57	=57	=57	=57	=57	=57	=57	=57	=57	=57	=57	=57	=57
4G\	.	.	.	.	.	.	2.r	.	.	2.r	.	.	2.r	.	.	(8b\L	.	.	2.ryy	2.ryy
.	.	.	.	.	.	.	.	.	.	.	.	.	.	.	.	8dd\J)	.	.	.	.
4r	.	.	.	.	.	.	.	.	.	.	.	.	.	.	.	(8cc\L	.	.	.	.
.	.	.	.	.	.	.	.	.	.	.	.	.	.	.	.	8b\J)	.	.	.	.
4B\	.	.	.	.	.	.	.	.	.	.	.	.	.	.	.	8a\L	.	.	.	.
.	.	.	.	.	.	.	.	.	.	.	.	.	.	.	.	8g\J	.	.	.	.
=58	=58	=58	=58	=58	=58	=58	=58	=58	=58	=58	=58	=58	=58	=58	=58	=58	=58	=58	=58	=58
4d\	.	.	0.r	.	0.r	.	2.r	.	.	2.r	.	.	2.r	.	.	8f#X/L	.	.	2.ryy	2.ryy
.	.	.	.	.	.	.	.	.	.	.	.	.	.	.	.	8a/J	.	.	.	.
4r	.	.	.	.	.	.	.	.	.	.	.	.	.	.	.	8cc\L	.	.	.	.
.	.	.	.	.	.	.	.	.	.	.	.	.	.	.	.	8ee\J	.	.	.	.
4F#X\	.	.	.	.	.	.	.	.	.	.	.	.	.	.	.	8dd\L	.	.	.	.
.	.	.	.	.	.	.	.	.	.	.	.	.	.	.	.	8cc\J	.	.	.	.
=59	=59	=59	=59	=59	=59	=59	=59	=59	=59	=59	=59	=59	=59	=59	=59	=59	=59	=59	=59	=59
8G\L	.	.	.	.	.	.	2.r	.	.	2.r	.	.	2.r	.	.	16b\LL	.	.	2.ryy	2.ryy
.	.	.	.	.	.	.	.	.	.	.	.	.	.	.	.	16dd\	.	.	.	.
8c\J	.	.	.	.	.	.	.	.	.	.	.	.	.	.	.	16cc\	.	.	.	.
.	.	.	.	.	.	.	.	.	.	.	.	.	.	.	.	16a\JJ	.	.	.	.
!	!	!	!	!	!	!	!	!	!	!	!	!	!	!	!	!	!LO:MO:mod=.	!	!	!
4d\	.	.	.	.	.	.	.	.	.	.	.	.	.	.	.	4g\	-ri-	.	.	.
!	!	!	!	!	!	!	!	!	!	!	!	!	!	!	!	!LO:TX:t=t	!	!	!	!
4D\	.	.	.	.	.	.	.	.	.	.	.	.	.	.	.	4f#X\	.	.	.	.
=60	=60	=60	=60	=60	=60	=60	=60	=60	=60	=60	=60	=60	=60	=60	=60	=60	=60	=60	=60	=60
4G\	.	.	.	.	.	.	2.r	.	.	2.r	.	.	2.r	.	.	4g\	-a	-a	2.ryy	2.ryy
4G\	.	.	.	.	.	.	.	.	.	.	.	.	.	.	.	8r	.	.	.	.
.	.	.	.	.	.	.	.	.	.	.	.	.	.	.	.	8dd\	Ma-	Ma-	.	.
!	!	!	!	!	!	!	!	!	!	!	!	!	!	!	!	!LO:TX:t=t	!	!	!	!
4B\	.	.	.	.	.	.	.	.	.	.	.	.	.	.	.	8.dd\L	-ri-	-ri-	.	.
.	.	.	.	.	.	.	.	.	.	.	.	.	.	.	.	32cc\LL	.	.	.	.
.	.	.	.	.	.	.	.	.	.	.	.	.	.	.	.	32dd\JJJ	.	.	.	.
!	!	!	!	!	!	!	!	!	!	!	!	!	!	!	!	!LO:LB:g=original	!	!	!	!
=61	=61	=61	=61	=61	=61	=61	=61	=61	=61	=61	=61	=61	=61	=61	=61	=61	=61	=61	=61	=61
4c\	.	.	.	.	.	.	2.r	.	.	2.r	.	.	2.r	.	.	8ee\L	.	.	2.ryy	2.ryy
.	.	.	.	.	.	.	.	.	.	.	.	.	.	.	.	8dd\J	.	.	.	.
4r	.	.	.	.	.	.	.	.	.	.	.	.	.	.	.	8ee\L	.	.	.	.
.	.	.	.	.	.	.	.	.	.	.	.	.	.	.	.	8ff#X\J	.	.	.	.
4c\	#4r 2	.	.	.	.	.	.	.	.	.	.	.	.	.	.	8ff#sSsS\L	.	.	.	.
.	.	.	.	.	.	.	.	.	.	.	.	.	.	.	.	16ee\L	.	.	.	.
.	.	.	.	.	.	.	.	.	.	.	.	.	.	.	.	16ff#\JJ	.	.	.	.
=62	=62	=62	=62	=62	=62	=62	=62	=62	=62	=62	=62	=62	=62	=62	=62	=62	=62	=62	=62	=62
8B\L	.	.	1.r	.	1.r	.	2.r	.	.	2.r	.	.	2.r	.	.	8gg\L	.	.	2.ryy	2.ryy
8G\J	.	.	.	.	.	.	.	.	.	.	.	.	.	.	.	8dd\J	.	.	.	.
4G\	.	.	.	.	.	.	.	.	.	.	.	.	.	.	.	4dd\	-a	-a	.	.
4B\	.	.	.	.	.	.	.	.	.	.	.	.	.	.	.	4ffn\	Ma-	Ma-	.	.
=63	=63	=63	=63	=63	=63	=63	=63	=63	=63	=63	=63	=63	=63	=63	=63	=63	=63	=63	=63	=63
.	.	.	.	.	.	.	.	.	.	.	.	.	.	.	.	8qqff/	.	.	.	.
4c\	.	.	.	.	.	.	2.r	.	.	2.r	.	.	2.r	.	.	8ee\L	-ri-	-ri-	2.ryy	2.ryy
.	.	.	.	.	.	.	.	.	.	.	.	.	.	.	.	16dd\L	.	.	.	.
.	.	.	.	.	.	.	.	.	.	.	.	.	.	.	.	16cc\JJ	.	.	.	.
4r	.	.	.	.	.	.	.	.	.	.	.	.	.	.	.	4b\	.	.	.	.
!	!	!	!	!	!LO:TX:b:i:rj:t=V&colon; Solo.:mod=	!	!	!	!	!	!	!	!	!	!	!LO:TX:a:i:t=t	!	!	!	!
4d\	#	.	.	.	.	.	.	.	.	.	.	.	.	.	.	4a\	.	.	.	.
!	!	!	!	!	!LO:PB:g=original	!	!	!	!	!	!	!	!	!	!	!	!	!	!	!
=64	=64	=64	=64	=64	=64	=64	=64	=64	=64	=64	=64	=64	=64	=64	=64	=64	=64	=64	=64	=64
!	!	!	!	!LO:DY:b:rj:t=po:mod=	!LO:TX:a:i:rj:t=Solo.	!	!	!	!	!	!	!	!	!	!	!	!	!	!	!
4G\	.	.	2.b 2.d/	p	8gg\L	.	2.r	.	.	2.r	.	.	2.r	.	.	4g\	-a	-a	2.ryy	2.ryy
.	.	.	.	.	8ddd\	.	.	.	.	.	.	.	.	.	.	.	.	.	.	.
4G\	.	.	.	.	8ddd\	.	.	.	.	.	.	.	.	.	.	4r	.	.	.	.
.	.	.	.	.	8bb\	.	.	.	.	.	.	.	.	.	.	.	.	.	.	.
4G\	.	.	.	.	8bb\	.	.	.	.	.	.	.	.	.	.	4r	.	.	.	.
.	.	.	.	.	8gg\J	.	.	.	.	.	.	.	.	.	.	.	.	.	.	.
=65	=65	=65	=65	=65	=65	=65	=65	=65	=65	=65	=65	=65	=65	=65	=65	=65	=65	=65	=65	=65
4Fn\	4_ 2_	.	2.b 2.d/	.	8gg\L	.	2.r	.	.	2.r	.	.	2.r	.	.	0.r	.	.	2.ryy	2.ryy
.	.	.	.	.	8ddd\	.	.	.	.	.	.	.	.	.	.	.	.	.	.	.
4F\	.	.	.	.	8ddd\	.	.	.	.	.	.	.	.	.	.	.	.	.	.	.
.	.	.	.	.	8bb\	.	.	.	.	.	.	.	.	.	.	.	.	.	.	.
4F\	X X	.	.	.	8bb\	.	.	.	.	.	.	.	.	.	.	.	.	.	.	.
.	.	.	.	.	8gg\J	.	.	.	.	.	.	.	.	.	.	.	.	.	.	.
!LO:LB:g=original	!	!	!	!	!	!	!	!	!	!	!	!	!	!	!	!	!	!	!	!
=66	=66	=66	=66	=66	=66	=66	=66	=66	=66	=66	=66	=66	=66	=66	=66	=66	=66	=66	=66	=66
4E\	6_	.	2.cc 2.e/	.	8gg\L	.	2.r	.	.	2.r	.	.	2.r	.	.	.	.	.	2.ryy	2.ryy
.	.	.	.	.	8eee\	.	.	.	.	.	.	.	.	.	.	.	.	.	.	.
4E\	.	.	.	.	8eee\	.	.	.	.	.	.	.	.	.	.	.	.	.	.	.
.	.	.	.	.	8ccc\	.	.	.	.	.	.	.	.	.	.	.	.	.	.	.
4E\	X	.	.	.	8ccc\	.	.	.	.	.	.	.	.	.	.	.	.	.	.	.
.	.	.	.	.	8gg\J	.	.	.	.	.	.	.	.	.	.	.	.	.	.	.
=67	=67	=67	=67	=67	=67	=67	=67	=67	=67	=67	=67	=67	=67	=67	=67	=67	=67	=67	=67	=67
4C/	.	.	2.cc 2.e/	.	8gg\L	.	2.r	.	.	2.r	.	.	2.r	.	.	.	.	.	2.ryy	2.ryy
.	.	.	.	.	8eee\	.	.	.	.	.	.	.	.	.	.	.	.	.	.	.
4C/	.	.	.	.	8eee\	.	.	.	.	.	.	.	.	.	.	.	.	.	.	.
.	.	.	.	.	8ccc\	.	.	.	.	.	.	.	.	.	.	.	.	.	.	.
4C/	.	.	.	.	8ccc\	.	.	.	.	.	.	.	.	.	.	.	.	.	.	.
.	.	.	.	.	8gg\J	.	.	.	.	.	.	.	.	.	.	.	.	.	.	.
!	!	!	!	!	!LO:LB:g=original	!	!	!	!	!	!	!	!	!	!	!	!	!	!	!
=68	=68	=68	=68	=68	=68	=68	=68	=68	=68	=68	=68	=68	=68	=68	=68	=68	=68	=68	=68	=68
4BB/	.	.	2.dd 2.f/	.	8gg\L	.	2.r	.	.	2.r	.	.	2.r	.	.	.	.	.	2.ryy	2.ryy
.	.	.	.	.	8fff\	.	.	.	.	.	.	.	.	.	.	.	.	.	.	.
4BB/	.	.	.	.	8fff\	.	.	.	.	.	.	.	.	.	.	.	.	.	.	.
.	.	.	.	.	8ddd\	.	.	.	.	.	.	.	.	.	.	.	.	.	.	.
4BB/	.	.	.	.	8ddd\	.	.	.	.	.	.	.	.	.	.	.	.	.	.	.
.	.	.	.	.	8gg\J	.	.	.	.	.	.	.	.	.	.	.	.	.	.	.
=69	=69	=69	=69	=69	=69	=69	=69	=69	=69	=69	=69	=69	=69	=69	=69	=69	=69	=69	=69	=69
4B\	.	.	2.dd 2.f/	.	8gg\L	.	2.r	.	.	2.r	.	.	2.r	.	.	0.r	.	.	2.ryy	2.ryy
.	.	.	.	.	8fff\	.	.	.	.	.	.	.	.	.	.	.	.	.	.	.
4B\	.	.	.	.	8fff\	.	.	.	.	.	.	.	.	.	.	.	.	.	.	.
.	.	.	.	.	8ddd\	.	.	.	.	.	.	.	.	.	.	.	.	.	.	.
4B\	.	.	.	.	8ddd\	.	.	.	.	.	.	.	.	.	.	.	.	.	.	.
.	.	.	.	.	8gg\J	.	.	.	.	.	.	.	.	.	.	.	.	.	.	.
!	!	!	!LO:LB:g=original	!	!	!	!	!	!	!	!	!	!	!	!	!	!	!	!	!
=70	=70	=70	=70	=70	=70	=70	=70	=70	=70	=70	=70	=70	=70	=70	=70	=70	=70	=70	=70	=70
4c\	.	.	4cc 4e/	.	8eee\L	.	2.r	.	.	2.r	.	.	2.r	.	.	.	.	.	2.ryy	2.ryy
.	.	.	.	.	8ccc\	.	.	.	.	.	.	.	.	.	.	.	.	.	.	.
4d\	6	.	2gg/ 2g/	.	8bb\	.	.	.	.	.	.	.	.	.	.	.	.	.	.	.
.	.	.	.	.	8gg\J	.	.	.	.	.	.	.	.	.	.	.	.	.	.	.
8e\L	6	.	.	.	8ccc\L	.	.	.	.	.	.	.	.	.	.	.	.	.	.	.
8B\J	.	.	.	.	8fff\J	.	.	.	.	.	.	.	.	.	.	.	.	.	.	.
=71	=71	=71	=71	=71	=71	=71	=71	=71	=71	=71	=71	=71	=71	=71	=71	=71	=71	=71	=71	=71
4c\	.	.	2.gg/ 2.g/	.	8eee\L	.	2.r	.	.	2.r	.	.	2.r	.	.	.	.	.	2.ryy	2.ryy
.	.	.	.	.	8ccc\	.	.	.	.	.	.	.	.	.	.	.	.	.	.	.
4d\	.	.	.	.	8bb\	.	.	.	.	.	.	.	.	.	.	.	.	.	.	.
.	.	.	.	.	8gg\J	.	.	.	.	.	.	.	.	.	.	.	.	.	.	.
4e\	.	.	.	.	4ccc\	.	.	.	.	.	.	.	.	.	.	.	.	.	.	.
=72	=72	=72	=72	=72	=72	=72	=72	=72	=72	=72	=72	=72	=72	=72	=72	=72	=72	=72	=72	=72
4G\	.	.	4r	.	16bb\LL	.	2.r	.	.	2.r	.	.	2.r	.	.	.	.	.	2.ryy	2.ryy
.	.	.	.	.	16ccc\	.	.	.	.	.	.	.	.	.	.	.	.	.	.	.
.	.	.	.	.	16ddd\	.	.	.	.	.	.	.	.	.	.	.	.	.	.	.
.	.	.	.	.	16eee\JJ	.	.	.	.	.	.	.	.	.	.	.	.	.	.	.
4B\	.	.	4ddd\	.	4fff\	.	.	.	.	.	.	.	.	.	.	.	.	.	.	.
4c\	.	.	4ccc\	.	4eee\	.	.	.	.	.	.	.	.	.	.	.	.	.	.	.
!	!	!	!	!	!LO:LB:g=original	!	!	!	!	!	!	!	!	!	!	!	!	!	!	!
=73	=73	=73	=73	=73	=73	=73	=73	=73	=73	=73	=73	=73	=73	=73	=73	=73	=73	=73	=73	=73
!	!	!	!LO:TX:t=t:mod=	!	!	!	!	!	!	!	!	!	!	!	!	!	!	!	!	!
!	!	!	!LO:MO:mod=4cccT\	!	!	!	!	!	!	!	!	!	!	!	!	!	!	!	!	!
4G\	.	.	4ccc\	.	4eeet\	.	2.r	.	.	2.r	.	.	2.r	.	.	2.r	.	.	2.ryy	2.ryy
4GG/	.	.	4bb\	.	4ddd\	.	.	.	.	.	.	.	.	.	.	.	.	.	.	.
!	!	!	!	!	!	!	!	!	!	!	!	!	!LO:TX:a:i:t=Tutti:mod=	!	!	!LO:TX:a:i:t=Tutti:mod=	!	!	!	!
!LO:MO:mod=16G|\LL	!	!	!	!	!	!	!	!	!	!	!	!	!	!	!	!	!	!	!	!
16G~\LL	.	.	4r	.	4r	.	.	.	.	.	.	.	.	.	.	.	.	.	.	.
!LO:MO:mod=16F|\	!	!	!	!	!	!	!	!	!	!	!	!	!	!	!	!	!	!	!	!
16F~\	.	.	.	.	.	.	.	.	.	.	.	.	.	.	.	.	.	.	.	.
!LO:MO:mod=16E|\	!	!	!	!	!	!	!	!	!	!	!	!	!	!	!	!	!	!	!	!
16E~\	.	.	.	.	.	.	.	.	.	.	.	.	.	.	.	.	.	.	.	.
!LO:MO:mod=16D|\JJ	!	!	!	!	!	!	!	!	!	!	!	!	!	!	!	!	!	!	!	!
16D~\JJ	.	.	.	.	.	.	.	.	.	.	.	.	.	.	.	.	.	.	.	.
!LO:LB:g=original	!	!	!	!	!	!	!	!	!	!	!	!	!	!	!	!LO:LB:g=original	!	!	!	!
=74	=74	=74	=74	=74	=74	=74	=74	=74	=74	=74	=74	=74	=74	=74	=74	=74	=74	=74	=74	=74
!!LO:TX:a:i:t= :mod=Tutti
!LO:TX:a:i:t=Tutti:mod=	!	!LO:DY:b:t=fortiſsime:mod=	!LO:TX:a:i:t=Tutti:mod=	!LO:DY:b:t=for&colon;:mod=	!LO:TX:a:i:t=Tutti:mod=	!LO:DY:b:rj:t=for:mod=	!	!	!	!	!	!	!	!	!	!	!	!	!	!
16C\LL	8_ 3_	ff	4cc\	f	4ee\	f	2.c\	O	O	2c\	O	O	2.cc\	O	O	2ee\	O	O	2.ryy	2.ryy
16c\	.	.	.	.	.	.	.	.	.	.	.	.	.	.	.	.	.	.	.	.
16B\	.	.	.	.	.	.	.	.	.	.	.	.	.	.	.	.	.	.	.	.
16c\JJ	.	.	.	.	.	.	.	.	.	.	.	.	.	.	.	.	.	.	.	.
16C\LL	.	.	4cc\	.	4ee\	.	.	.	.	.	.	.	.	.	.	.	.	.	.	.
16c\	.	.	.	.	.	.	.	.	.	.	.	.	.	.	.	.	.	.	.	.
16B\	.	.	.	.	.	.	.	.	.	.	.	.	.	.	.	.	.	.	.	.
16c\JJ	.	.	.	.	.	.	.	.	.	.	.	.	.	.	.	.	.	.	.	.
16C\LL	9 4	.	4dd\	.	4ff\	.	.	.	.	4d\	.	.	.	.	.	4ff\	.	.	.	.
16c\	.	.	.	.	.	.	.	.	.	.	.	.	.	.	.	.	.	.	.	.
16B\	.	.	.	.	.	.	.	.	.	.	.	.	.	.	.	.	.	.	.	.
16c\JJ	.	.	.	.	.	.	.	.	.	.	.	.	.	.	.	.	.	.	.	.
=75	=75	=75	=75	=75	=75	=75	=75	=75	=75	=75	=75	=75	=75	=75	=75	=75	=75	=75	=75	=75
16C\LL	10 5	.	4.ee\	.	4.gg\	.	2.c\	Cle-	cle-	4.e\	Cle-	cle-	2.cc\	Cle-	cle-	4.gg\	Cle-	cle-	2.ryy	2.ryy
16c\	.	.	.	.	.	.	.	.	.	.	.	.	.	.	.	.	.	.	.	.
16B\	.	.	.	.	.	.	.	.	.	.	.	.	.	.	.	.	.	.	.	.
16c\JJ	.	.	.	.	.	.	.	.	.	.	.	.	.	.	.	.	.	.	.	.
!LO:TX:t=P:problem=mixed beam:mod=	!	!	!	!	!	!	!	!	!	!	!	!	!	!	!	!	!	!	!	!
16C/LL	9 4	.	.	.	.	.	.	.	.	.	.	.	.	.	.	.	.	.	.	.
16c\	.	.	.	.	.	.	.	.	.	.	.	.	.	.	.	.	.	.	.	.
16B\	.	.	8dd\	.	8ff\	.	.	.	.	8d\	.	.	.	.	.	8ff\	.	.	.	.
16c\JJ	.	.	.	.	.	.	.	.	.	.	.	.	.	.	.	.	.	.	.	.
!LO:TX:t=P:problem=mixed beam:mod=	!	!	!	!	!	!	!	!	!	!	!	!	!	!	!	!	!	!	!	!
16C/LL	8 3	.	4cc\	.	4ee\	.	.	.	.	4c\	-mens	-mens	.	.	.	4ee\	-mens	-mens	.	.
16c\	.	.	.	.	.	.	.	.	.	.	.	.	.	.	.	.	.	.	.	.
16B\	.	.	.	.	.	.	.	.	.	.	.	.	.	.	.	.	.	.	.	.
16c\JJ	.	.	.	.	.	.	.	.	.	.	.	.	.	.	.	.	.	.	.	.
=76	=76	=76	=76	=76	=76	=76	=76	=76	=76	=76	=76	=76	=76	=76	=76	=76	=76	=76	=76	=76
!LO:TX:t=P:problem=mixed beam:mod=	!	!	!	!	!	!	!	!	!	!	!	!	!	!	!	!	!	!	!	!
16C/LL	8_ 3_	.	4cc\	.	4ee\	.	2c\	-mens	-mens	4c\	O	O	2cc\	-mens,	-mens,	4ee\	o	o	2.ryy	2.ryy
16c\	.	.	.	.	.	.	.	.	.	.	.	.	.	.	.	.	.	.	.	.
16B\	.	.	.	.	.	.	.	.	.	.	.	.	.	.	.	.	.	.	.	.
16c\JJ	.	.	.	.	.	.	.	.	.	.	.	.	.	.	.	.	.	.	.	.
!LO:TX:t=P:problem=mixed beam:mod=	!	!	!	!	!	!	!	!	!	!	!	!	!	!	!	!	!	!	!	!
16C/LL	.	.	8cc\L	.	8ee\L	.	.	.	.	8c\L	.	.	.	.	.	8ee\L	.	.	.	.
16c\	.	.	.	.	.	.	.	.	.	.	.	.	.	.	.	.	.	.	.	.
16B\	.	.	8ee\	.	8gg\	.	.	.	.	8e\J	.	.	.	.	.	8gg\J	.	.	.	.
16c\JJ	.	.	.	.	.	.	.	.	.	.	.	.	.	.	.	.	.	.	.	.
!LO:TX:t=P:problem=mixed beam:mod=	!	!	!	!	!	!	!	!	!	!	!	!	!	!	!	!	!	!	!	!
16C/LL	9 4	.	8dd\	.	8ff\	.	4c\	o	o	8d\L	.	.	4cc\	o	o	8ff\L	.	.	.	.
16c\	.	.	.	.	.	.	.	.	.	.	.	.	.	.	.	.	.	.	.	.
16B\	.	.	8ff\J	.	8aa\J	.	.	.	.	8f\J	.	.	.	.	.	8aa\J	.	.	.	.
16c\JJ	.	.	.	.	.	.	.	.	.	.	.	.	.	.	.	.	.	.	.	.
!	!	!	!LO:LB:g=original	!	!	!	!	!	!	!LO:LB:g=original	!	!	!	!	!	!	!	!	!	!
=77	=77	=77	=77	=77	=77	=77	=77	=77	=77	=77	=77	=77	=77	=77	=77	=77	=77	=77	=77	=77
!LO:TX:t=P:problem=mixed beam:mod=	!	!	!	!	!	!	!	!	!	!	!	!	!	!	!	!	!	!	!	!
16C/LL	10 5	.	4.ee\	.	4.gg\	.	2.c\	pi-	pi-	4.e\	pi-	pi-	2.cc\	pi-	pi-	4.gg\	pi-	pi-	2.ryy	2.ryy
16c\	.	.	.	.	.	.	.	.	.	.	.	.	.	.	.	.	.	.	.	.
16B\	.	.	.	.	.	.	.	.	.	.	.	.	.	.	.	.	.	.	.	.
16c\JJ	.	.	.	.	.	.	.	.	.	.	.	.	.	.	.	.	.	.	.	.
!LO:TX:t=P:problem=mixed beam:mod=	!	!	!	!	!	!	!	!	!	!	!	!	!	!	!	!	!	!	!	!
16C/LL	9 4	.	.	.	.	.	.	.	.	.	.	.	.	.	.	.	.	.	.	.
16c\	.	.	.	.	.	.	.	.	.	.	.	.	.	.	.	.	.	.	.	.
16B\	.	.	8dd\	.	8ff\	.	.	.	.	8d\	.	.	.	.	.	8ff\	.	.	.	.
16c\JJ	.	.	.	.	.	.	.	.	.	.	.	.	.	.	.	.	.	.	.	.
!LO:TX:t=P:problem=mixed beam:mod=	!	!	!	!	!	!	!	!	!	!	!	!	!	!	!	!	!	!	!	!
16C/LL	8 3	.	4cc\	.	4ee\	.	.	.	.	4c\	-a	-a	.	.	.	4ee\	-a	-a	.	.
16c\	.	.	.	.	.	.	.	.	.	.	.	.	.	.	.	.	.	.	.	.
16B\	.	.	.	.	.	.	.	.	.	.	.	.	.	.	.	.	.	.	.	.
16c\JJ	.	.	.	.	.	.	.	.	.	.	.	.	.	.	.	.	.	.	.	.
=78	=78	=78	=78	=78	=78	=78	=78	=78	=78	=78	=78	=78	=78	=78	=78	=78	=78	=78	=78	=78
!LO:TX:t=P:problem=mixed beam:mod=	!	!	!	!	!	!	!	!	!	!	!	!	!	!	!	!	!	!	!	!
16C/LL	8 6	.	4aa\	.	4ccc\	.	2c\	-a	-a	4a\	O	o	2cc\	-a	-a	4ccc 4cc\	o	o	2.ryy	2.ryy
16c\	.	.	.	.	.	.	.	.	.	.	.	.	.	.	.	.	.	.	.	.
16B\	.	.	.	.	.	.	.	.	.	.	.	.	.	.	.	.	.	.	.	.
16c\JJ	.	.	.	.	.	.	.	.	.	.	.	.	.	.	.	.	.	.	.	.
!LO:TX:t=P:problem=mixed beam:mod=	!	!	!	!	!	!	!	!	!	!	!	!	!	!	!	!	!	!	!	!
16C/LL	7 5	.	4gg\	.	4bb\	.	.	.	.	4g\	.	.	.	.	.	4bb 4b\	.	.	.	.
16c\	.	.	.	.	.	.	.	.	.	.	.	.	.	.	.	.	.	.	.	.
16B\	.	.	.	.	.	.	.	.	.	.	.	.	.	.	.	.	.	.	.	.
16c\JJ	.	.	.	.	.	.	.	.	.	.	.	.	.	.	.	.	.	.	.	.
!LO:TX:t=P:problem=mixed beam:mod=	!	!	!	!	!	!	!	!	!	!	!	!	!	!	!	!	!	!	!	!
16C/LL	.	.	4ff\	.	4aa\	.	4c\	o	o	4f\	.	.	4cc\	o	o	4aa 4a\	.	.	.	.
16c\	.	.	.	.	.	.	.	.	.	.	.	.	.	.	.	.	.	.	.	.
16B\	6 4	.	.	.	.	.	.	.	.	.	.	.	.	.	.	.	.	.	.	.
16c\JJ	.	.	.	.	.	.	.	.	.	.	.	.	.	.	.	.	.	.	.	.
!LO:LB:g=original	!	!	!	!	!	!	!	!	!	!	!	!	!	!	!	!	!	!	!	!
=79	=79	=79	=79	=79	=79	=79	=79	=79	=79	=79	=79	=79	=79	=79	=79	=79	=79	=79	=79	=79
!LO:TX:t=P:problem=mixed beam:mod=	!	!	!	!	!	!	!	!	!	!	!	!	!	!	!	!	!	!	!	!
16C/LL	8 3	.	4.ee\	.	4.gg\	.	4c\	dul-	dul-	4.e\	dul-	dul-	4cc\	dul-	dul-	4.gg 4.g\	dul-	dul-	2.ryy	2.ryy
16c\	.	.	.	.	.	.	.	.	.	.	.	.	.	.	.	.	.	.	.	.
16B\	3	.	.	.	.	.	.	.	.	.	.	.	.	.	.	.	.	.	.	.
16c\JJ	.	.	.	.	.	.	.	.	.	.	.	.	.	.	.	.	.	.	.	.
!LO:TX:t=P:problem=mixed beam:mod=	!	!	!	!	!	!	!	!	!	!	!	!	!	!	!	!	!	!	!	!
16C/LL	4 2	.	.	.	.	.	4c\	-cis	-cis	.	.	.	4cc\	-cis	-cis	.	.	.	.	.
16c\	.	.	.	.	.	.	.	.	.	.	.	.	.	.	.	.	.	.	.	.
16B\	.	.	8dd\	.	8ff\	.	.	.	.	8d\	.	.	.	.	.	8ff 8f\	.	.	.	.
16c\JJ	.	.	.	.	.	.	.	.	.	.	.	.	.	.	.	.	.	.	.	.
!LO:TX:t=P:problem=mixed beam:mod=	!	!	!	!	!	!	!	!	!	!	!	!	!	!	!	!	!	!	!	!
16C/LL	3 1	.	4cc\	.	4ee\	.	4c\	Vir-	Vir-	4c\	-cis	-cis	4cc\	Vir-	Vir-	4ee 4e\	-cis	-cis	.	.
16c\	.	.	.	.	.	.	.	.	.	.	.	.	.	.	.	.	.	.	.	.
16B\	.	.	.	.	.	.	.	.	.	.	.	.	.	.	.	.	.	.	.	.
16c\JJ	.	.	.	.	.	.	.	.	.	.	.	.	.	.	.	.	.	.	.	.
!	!	!	!	!	!LO:LB:g=original	!	!	!	!	!	!	!	!	!	!	!	!	!	!	!
=80	=80	=80	=80	=80	=80	=80	=80	=80	=80	=80	=80	=80	=80	=80	=80	=80	=80	=80	=80	=80
2F\	.	.	8ff\L	.	8aa\L	.	2F\	-go	-go	8f\L	Vir-	Vir-	8cc\	-go	-go	8aa\L	Vir-	Vir-	2.ryy	2.ryy
.	.	.	8ee\J	.	8gg\J	.	.	.	.	8e\J	.	.	8cc\	Ma-	Ma-	8gg\J	.	.	.	.
.	.	.	4dd\	.	4ff\	.	.	.	.	4d\	-go	-go	2a\	-ri-	-ri-	4ff\	-go	-go	.	.
4F#X\	7	.	4cc\	.	4ee\	.	4F#X\	Ma-	Ma-	4c\	Ma-	Ma-	.	.	.	4ee\	Ma-	Ma-	.	.
!	!	!	!	!	!	!	!LO:LB:g=original	!	!	!	!	!	!	!	!	!	!	!	!	!
=81	=81	=81	=81	=81	=81	=81	=81	=81	=81	=81	=81	=81	=81	=81	=81	=81	=81	=81	=81	=81
4G\	4	.	4cc\	.	4ee\	.	4G\	-ri-	-ri-	4c\	-ri-	-ri-	2g\	-a	-a	4ee\	-ri-	-ri-	2.ryy	2.ryy
4GG/	3	.	8b\L	.	8dd\L	.	4GG/	-a	-a	4B\	-a	-a	.	.	.	4dd\	-a	-a	.	.
.	.	.	8b\	.	8dd\	.	.	.	.	.	.	.	.	.	.	.	.	.	.	.
4r	.	.	8cc\	.	8ee\	.	4r	.	.	4r	.	.	4r	.	.	4r	.	.	.	.
.	.	.	8dd\J	.	8ff\J	.	.	.	.	.	.	.	.	.	.	.	.	.	.	.
!	!	!	!	!	!	!	!	!	!	!	!	!	!LO:LB:g=original	!	!	!	!	!	!	!
=82	=82	=82	=82	=82	=82	=82	=82	=82	=82	=82	=82	=82	=82	=82	=82	=82	=82	=82	=82	=82
!LO:TX:t=P:problem=mixed beam:mod=	!	!	!	!	!	!	!	!	!	!	!	!	!	!	!	!	!	!	!	!
16C/LL	8 3	.	4cc\	.	4ee\	.	2.C/	O	O	2c\	O	O	2.cc\	O	O	2ee\	O	O	2.ryy	2.ryy
16c\	.	.	.	.	.	.	.	.	.	.	.	.	.	.	.	.	.	.	.	.
16B\	.	.	.	.	.	.	.	.	.	.	.	.	.	.	.	.	.	.	.	.
16c\JJ	.	.	.	.	.	.	.	.	.	.	.	.	.	.	.	.	.	.	.	.
!LO:TX:t=P:problem=mixed beam:mod=	!	!	!	!	!	!	!	!	!	!	!	!	!	!	!	!	!	!	!	!
16C/LL	8 3	.	4cc\	.	4ee\	.	.	.	.	.	.	.	.	.	.	.	.	.	.	.
16c\	.	.	.	.	.	.	.	.	.	.	.	.	.	.	.	.	.	.	.	.
16B\	.	.	.	.	.	.	.	.	.	.	.	.	.	.	.	.	.	.	.	.
16c\JJ	.	.	.	.	.	.	.	.	.	.	.	.	.	.	.	.	.	.	.	.
!LO:TX:t=P:problem=mixed beam:mod=	!	!	!	!	!	!	!	!	!	!	!	!	!	!	!	!	!	!	!	!
16C/LL	9 4	.	4dd\	.	4ff\	.	.	.	.	4d\	.	.	.	.	.	4ff\	.	.	.	.
16c\	.	.	.	.	.	.	.	.	.	.	.	.	.	.	.	.	.	.	.	.
16B\	.	.	.	.	.	.	.	.	.	.	.	.	.	.	.	.	.	.	.	.
16c\JJ	.	.	.	.	.	.	.	.	.	.	.	.	.	.	.	.	.	.	.	.
!	!	!	!	!	!	!	!	!	!	!LO:LB:g=original	!	!	!	!	!	!	!	!	!	!
=83	=83	=83	=83	=83	=83	=83	=83	=83	=83	=83	=83	=83	=83	=83	=83	=83	=83	=83	=83	=83
!LO:TX:t=P:problem=mixed beam:mod=	!	!	!	!	!	!	!	!	!	!	!	!	!	!	!	!	!	!	!	!
16C/LL	10 5	.	4.ee\	.	4.gg\	.	2.C/	Cle-	cle-	4.e\	Cle-	cle-	2.cc\	Cle-	cle-	4.gg\	Cle-	cle-	2.ryy	2.ryy
16c\	.	.	.	.	.	.	.	.	.	.	.	.	.	.	.	.	.	.	.	.
16B\	.	.	.	.	.	.	.	.	.	.	.	.	.	.	.	.	.	.	.	.
16c\JJ	.	.	.	.	.	.	.	.	.	.	.	.	.	.	.	.	.	.	.	.
!LO:TX:t=P:problem=mixed beam:mod=	!	!	!	!	!	!	!	!	!	!	!	!	!	!	!	!	!	!	!	!
16C/LL	9 4	.	.	.	.	.	.	.	.	.	.	.	.	.	.	.	.	.	.	.
16c\	.	.	.	.	.	.	.	.	.	.	.	.	.	.	.	.	.	.	.	.
16B\	.	.	8dd\	.	8ff\	.	.	.	.	8d\	.	.	.	.	.	8ff\	.	.	.	.
16c\JJ	.	.	.	.	.	.	.	.	.	.	.	.	.	.	.	.	.	.	.	.
!LO:TX:t=P:problem=mixed beam:mod=	!	!	!	!	!	!	!	!	!	!	!	!	!	!	!	!	!	!	!	!
16C/LL	8 3	.	4cc\	.	4ee\	.	.	.	.	4c\	-mens	-mens	.	.	.	4ee\	-mens	-mens	.	.
16c\	.	.	.	.	.	.	.	.	.	.	.	.	.	.	.	.	.	.	.	.
16B\	.	.	.	.	.	.	.	.	.	.	.	.	.	.	.	.	.	.	.	.
16c\JJ	.	.	.	.	.	.	.	.	.	.	.	.	.	.	.	.	.	.	.	.
!	!	!	!LO:LB:g=original	!	!	!	!	!	!	!	!	!	!	!	!	!LO:LB:g=original	!	!	!	!
=84	=84	=84	=84	=84	=84	=84	=84	=84	=84	=84	=84	=84	=84	=84	=84	=84	=84	=84	=84	=84
!	!	!	!	!	!	!	!LO:MO:mod=!null:null	!	!	!	!	!	!	!	!	!	!	!	!	!
!LO:TX:t=P:problem=mixed beam:mod=	!	!	!	!	!	!	!LO:N:vis=2.	!	!	!	!	!	!	!	!	!	!	!	!	!
16C/LL	8 3	.	4cc\	.	4ee\	.	2C/	-mens	-mens	4c\	O	o	2cc\	-mens	-mens	4ee\	O	o	2.ryy	2.ryy
16c\	.	.	.	.	.	.	.	.	.	.	.	.	.	.	.	.	.	.	.	.
16B\	.	.	.	.	.	.	.	.	.	.	.	.	.	.	.	.	.	.	.	.
16c\JJ	.	.	.	.	.	.	.	.	.	.	.	.	.	.	.	.	.	.	.	.
!LO:TX:t=P:problem=mixed beam:mod=	!	!	!	!	!	!	!	!	!	!	!	!	!	!	!	!	!	!	!	!
16C/LL	8 3	.	8cc\L	.	8ee\L	.	.	.	.	8c\L	.	.	.	.	.	8ee\L	.	.	.	.
16c\	.	.	.	.	.	.	.	.	.	.	.	.	.	.	.	.	.	.	.	.
16B\	.	.	8ee\	.	8gg\	.	.	.	.	8e\J	.	.	.	.	.	8gg\	.	.	.	.
16c\JJ	.	.	.	.	.	.	.	.	.	.	.	.	.	.	.	.	.	.	.	.
!LO:TX:t=P:problem=mixed beam:mod=	!	!	!	!	!	!	!	!	!	!	!	!	!	!	!	!	!	!	!	!
16C/LL	.	.	8dd\	.	8ff\	.	4C/	O	o	8d\L	.	.	4cc\	o	o	8ff\	.	.	.	.
16c\	9 4	.	.	.	.	.	.	.	.	.	.	.	.	.	.	.	.	.	.	.
16B\	.	.	8ff\J	.	8aa\J	.	.	.	.	8f\J	.	.	.	.	.	8aa\J	.	.	.	.
16c\JJ	.	.	.	.	.	.	.	.	.	.	.	.	.	.	.	.	.	.	.	.
!LO:LB:g=original	!	!	!	!	!	!	!	!	!	!	!	!	!	!	!	!	!	!	!	!
=85	=85	=85	=85	=85	=85	=85	=85	=85	=85	=85	=85	=85	=85	=85	=85	=85	=85	=85	=85	=85
!LO:TX:t=P:problem=mixed beam:mod=	!	!	!	!	!	!	!	!	!	!	!	!	!	!	!	!	!	!	!	!
16C/LL	10 5	.	4.ee\	.	4.gg\	.	2.C/	pi-	pi-	4.e\	pi-	pi-	2.cc\	pi-	pi-	4.gg\	pi-	pi-	2.ryy	2.ryy
16c\	.	.	.	.	.	.	.	.	.	.	.	.	.	.	.	.	.	.	.	.
16B\	.	.	.	.	.	.	.	.	.	.	.	.	.	.	.	.	.	.	.	.
16c\JJ	.	.	.	.	.	.	.	.	.	.	.	.	.	.	.	.	.	.	.	.
!LO:TX:t=P:problem=mixed beam:mod=	!	!	!	!	!	!	!	!	!	!	!	!	!	!	!	!	!	!	!	!
16C/LL	9 4	.	.	.	.	.	.	.	.	.	.	.	.	.	.	.	.	.	.	.
16c\	.	.	.	.	.	.	.	.	.	.	.	.	.	.	.	.	.	.	.	.
16B\	.	.	8dd\	.	8ff\	.	.	.	.	8d\	.	.	.	.	.	8ff\	.	.	.	.
16c\JJ	.	.	.	.	.	.	.	.	.	.	.	.	.	.	.	.	.	.	.	.
!LO:TX:t=P:problem=mixed beam:mod=	!	!	!	!	!	!	!	!	!	!	!	!	!	!	!	!	!	!	!	!
16C/LL	8 3	.	4cc\	.	4ee\	.	.	.	.	4c\	-a	-a	.	.	.	4ee\	-a	-a	.	.
16c\	.	.	.	.	.	.	.	.	.	.	.	.	.	.	.	.	.	.	.	.
16B\	.	.	.	.	.	.	.	.	.	.	.	.	.	.	.	.	.	.	.	.
16c\JJ	.	.	.	.	.	.	.	.	.	.	.	.	.	.	.	.	.	.	.	.
=86	=86	=86	=86	=86	=86	=86	=86	=86	=86	=86	=86	=86	=86	=86	=86	=86	=86	=86	=86	=86
!LO:TX:t=P:problem=mixed beam:mod=	!	!	!	!	!	!	!	!	!	!	!	!	!	!	!	!	!	!	!	!
16C/LL	8 6	.	4aa\	.	4ccc\	.	2C/	-a	-a	4a\	O	o	2cc\	-a	-a	4ccc 4cc\	o	o	2.ryy	2.ryy
16c\	.	.	.	.	.	.	.	.	.	.	.	.	.	.	.	.	.	.	.	.
16B\	.	.	.	.	.	.	.	.	.	.	.	.	.	.	.	.	.	.	.	.
16c\JJ	.	.	.	.	.	.	.	.	.	.	.	.	.	.	.	.	.	.	.	.
!LO:TX:t=P:problem=mixed beam:mod=	!	!	!	!	!	!	!	!	!	!	!	!	!	!	!	!	!	!	!	!
16C/LL	7 5	.	4gg\	.	4bb\	.	.	.	.	4g\	.	.	.	.	.	4bb 4b\	dul-	dul-	.	.
16c\	.	.	.	.	.	.	.	.	.	.	.	.	.	.	.	.	.	.	.	.
16B\	.	.	.	.	.	.	.	.	.	.	.	.	.	.	.	.	.	.	.	.
16c\JJ	.	.	.	.	.	.	.	.	.	.	.	.	.	.	.	.	.	.	.	.
!LO:TX:t=P:problem=mixed beam:mod=	!	!	!	!	!	!	!	!	!	!	!	!	!	!	!	!	!	!	!	!
16C/LL	6 4	.	4ff\	.	4aa\	.	4C/	o	o	4f\	.	.	4cc\	o	o	4aa 4a\	-cis	-cis	.	.
16c\	.	.	.	.	.	.	.	.	.	.	.	.	.	.	.	.	.	.	.	.
16B\	.	.	.	.	.	.	.	.	.	.	.	.	.	.	.	.	.	.	.	.
16c\JJ	.	.	.	.	.	.	.	.	.	.	.	.	.	.	.	.	.	.	.	.
!	!	!	!	!	!LO:LB:g=original	!	!	!	!	!	!	!	!	!	!	!	!	!	!	!
=87	=87	=87	=87	=87	=87	=87	=87	=87	=87	=87	=87	=87	=87	=87	=87	=87	=87	=87	=87	=87
!LO:TX:t=P:problem=mixed beam:mod=	!	!	!	!	!	!	!	!	!	!	!	!	!	!	!	!	!	!	!	!
16C/LL	5 3	.	4.ee\	.	4.gg\	.	4C/	dul-	dul-	4.e\	dul-	dul-	4cc\	dul-	dul-	4.gg\	Vir-	Vir-	2.ryy	2.ryy
16c\	.	.	.	.	.	.	.	.	.	.	.	.	.	.	.	.	.	.	.	.
16B\	.	.	.	.	.	.	.	.	.	.	.	.	.	.	.	.	.	.	.	.
16c\JJ	.	.	.	.	.	.	.	.	.	.	.	.	.	.	.	.	.	.	.	.
!LO:TX:t=P:problem=mixed beam:mod=	!	!	!	!	!	!	!	!	!	!	!	!	!	!	!	!	!	!	!	!
16C/LL	4 2	.	.	.	.	.	4C/	-cis	-cis	.	.	.	4cc\	-cis	-cis	.	.	.	.	.
16c\	.	.	.	.	.	.	.	.	.	.	.	.	.	.	.	.	.	.	.	.
16B\	.	.	8dd\L	.	8ff\L	.	.	.	.	8d\	.	.	.	.	.	8ff\L	-go	-go	.	.
16c\JJ	.	.	.	.	.	.	.	.	.	.	.	.	.	.	.	.	.	.	.	.
!LO:TX:t=P:problem=mixed beam:mod=	!	!	!	!	!	!	!	!	!	!	!	!	!	!	!	!	!	!	!	!
16C/LL	3 1	.	8cc\	.	8ee\	.	4C/	Vir-	Vir-	8c\	-cis	-cis	4cc\	Vir-	Vir-	8ee\	.	.	.	.
16c\	.	.	.	.	.	.	.	.	.	.	.	.	.	.	.	.	.	.	.	.
16B\	.	.	8ee\J	.	8gg\J	.	.	.	.	8e\	Vir-	Vir-	.	.	.	8gg\J	.	.	.	.
16c\JJ	.	.	.	.	.	.	.	.	.	.	.	.	.	.	.	.	.	.	.	.
!	!	!	!	!	!	!	!LO:LB:g=original	!	!	!	!	!	!	!	!	!	!	!	!	!
=88	=88	=88	=88	=88	=88	=88	=88	=88	=88	=88	=88	=88	=88	=88	=88	=88	=88	=88	=88	=88
8E\L	.	.	8ee\L	.	8gg\L	.	8E\	-go	-go	8e\	-go	-go	8g\	-go	-go	8gg\L	Ma-	Ma-	2.ryy	2.ryy
8F\J	.	.	8dd\J	.	8ff\J	.	8F\	Ma-	Ma-	8d\	Ma-	Ma-	8a\	Ma-	Ma-	8ff\J	.	.	.	.
!	!	!	!	!	!	!	!	!	!	!LO:LB:g=original	!	!	!	!	!	!	!	!	!	!
4G\	.	.	4cc\	.	4ee\	.	4G\	-ri-	-ri-	4c\	-ri-	-ri-	2g\	-ri-	-ri-	4ee\	-ri-	-ri-	.	.
4GG/	.	.	4b\	.	4dd\	.	4GG/	.	.	4B\	.	.	.	.	.	4dd\	.	.	.	.
!	!	!	!	!	!	!	!	!	!	!	!	!	!LO:LB:g=original	!	!	!	!	!	!	!
=89	=89	=89	=89	=89	=89	=89	=89	=89	=89	=89	=89	=89	=89	=89	=89	=89	=89	=89	=89	=89
*	*	*	*^	*	*^	*	*	*	*	*	*	*	*	*	*	*	*	*	*	*
4C/	.	.	4ee/	4cc\	.	4ee/	2.g\	.	2C/	-a	-a	2c\	-a	-a	2g\	-a	-a	4ee\	-a	-a	2.ryy	2.ryy
4C/	.	.	4ee/	4cc\	.	4ee/	.	.	.	.	.	.	.	.	.	.	.	2ee\	Ma-	Ma-	.	.
4C/	.	.	4ee/	4cc\	.	4ee/	.	.	4C/	Ma-	Ma-	4c\	Ma-	Ma-	4g\	Ma-	Ma-	.	.	.	.	.
=90	=90	=90	=90	=90	=90	=90	=90	=90	=90	=90	=90	=90	=90	=90	=90	=90	=90	=90	=90	=90	=90	=90
4G\	.	.	2.ff/	2.dd\	.	2.ff/	2.g\	.	2.G\	-ri-	-ri-	2.d\	-ri-	-ri-	2.b\	-ri-	-ri-	2.ff\	-ri-	-ri-	2.ryy	2.ryy
4G\	.	.	.	.	.	.	.	.	.	.	.	.	.	.	.	.	.	.	.	.	.	.
4G\	.	.	.	.	.	.	.	.	.	.	.	.	.	.	.	.	.	.	.	.	.	.
!LO:LB:g=original	!	!	!LO:LB:g=original	!LO:LB:g=original	!	!	!	!	!	!	!	!	!	!	!	!	!	!	!	!	!	!
=91	=91	=91	=91	=91	=91	=91	=91	=91	=91	=91	=91	=91	=91	=91	=91	=91	=91	=91	=91	=91	=91	=91
!	!	!	!	!	!	!	!	!	!	!	!	!	!	!	!LO:N:vis=2.	!	!	!	!	!	!	!
4C/	.	.	4ee/	4cc\	.	4ee/	2.g\	.	2C/	-a	-a	2c\	-a	-a	2g\	-a	-a	2.ee\	.	.	2.ryy	2.ryy
4C/	.	.	4ee/	4cc\	.	4ee/	.	.	.	.	.	.	.	.	.	.	.	.	.	.	.	.
4C/	.	.	4ee/	4cc\	.	4ee/	.	.	4C/	Ma-	Ma-	4c\	Ma-	Ma-	4g\	Ma-	Ma-	.	.	.	.	.
=92	=92	=92	=92	=92	=92	=92	=92	=92	=92	=92	=92	=92	=92	=92	=92	=92	=92	=92	=92	=92	=92	=92
4GG/	.	.	2.ff/	2.dd\	.	2.dd/	2.g\	.	2.GG/	-ri-	-ri-	2.B\	-ri-	-ri-	2.g\	-ri-	-ri-	2.dd\	.	.	2.ryy	2.ryy
4GG/	.	.	.	.	.	.	.	.	.	.	.	.	.	.	.	.	.	.	.	.	.	.
4GG/	.	.	.	.	.	.	.	.	.	.	.	.	.	.	.	.	.	.	.	.	.	.
*	*	*	*	*	*	*v	*v	*	*	*	*	*	*	*	*	*	*	*	*	*	*	*
=93	=93	=93	=93	=93	=93	=93	=93	=93	=93	=93	=93	=93	=93	=93	=93	=93	=93	=93	=93	=93	=93
!	!	!	!	!	!LO:DY:t= :mod=%s	!	!	!	!	!	!	!	!	!	!	!	!	!	!	!	!
!	!	!	!LO:TX:t=P:problem=mixed beam:mod=	!	!LO:MO:mod=!LO&colon;DY&colon;ed=brack	!	!	!	!	!	!	!	!	!	!	!	!	!	!	!	!
!	!	!	!LO:SIC:s=8ee/|	!LO:SIC:s=8cc/L|	!null	!LO:SIC:s=8cc/L|	!LO:DY:b:t=fortiſsime:mod=	!	!	!	!	!	!	!	!	!	!	!	!	!	!
8C/L|	.	.	8ee/	8cc\L	ff	8cc/L	ff	4C/	-a.	-a.	4c\	-a.	-a.	4g\	-a	-a	4ee\	a	a	2.ryy	2.ryy
!	!	!	!	!LO:SIC:s=16c/L|	!	!LO:SIC:s=16c/L|	!	!	!	!	!	!	!	!	!	!	!	!	!	!	!
16C/L|	.	.	8ryy	16c'/L	.	16c'/L	.	.	.	.	.	.	.	.	.	.	.	.	.	.	.
!	!	!	!	!LO:SIC:s=16c/JJ|	!	!LO:SIC:s=16c/JJ|	!	!	!	!	!	!	!	!	!	!	!	!	!	!	!
16C/JJ|	.	.	.	16c'/JJ	.	16c'/JJ	.	.	.	.	.	.	.	.	.	.	.	.	.	.	.
!	!	!	!	!LO:SIC:s=8e/L|	!	!LO:SIC:s=8e/L|	!	!	!	!	!	!	!	!	!	!	!	!	!	!	!
8E|\L	.	.	4ryy	8e'/L	.	8e'/L	.	4r	.	.	4r	.	.	4r	.	.	4r	.	.	.	.
!	!	!	!	!LO:SIC:s=8c/|	!	!LO:SIC:s=8c/|	!	!	!	!	!	!	!	!	!	!	!	!	!	!	!
8C|\	.	.	.	8c'/	.	8c'/	.	.	.	.	.	.	.	.	.	.	.	.	.	.	.
!	!	!	!	!LO:SIC:s=8g/|	!	!LO:SIC:s=8g/|	!	!	!	!	!	!	!	!	!	!	!	!	!	!	!
8G|\	.	.	4ryy	8g'/	.	8g'/	.	4r	.	.	4r	.	.	4r	.	.	4r	.	.	.	.
!	!	!	!	!LO:SIC:s=8e/J|	!	!LO:SIC:s=8e/J|	!	!	!	!	!	!	!	!	!	!	!	!	!	!	!
8E|\J	.	.	.	8e'/J	.	8e'/J	.	.	.	.	.	.	.	.	.	.	.	.	.	.	.
*	*	*	*v	*v	*	*	*	*	*	*	*	*	*	*	*	*	*	*	*	*	*
!	!	!	!	!	!LO:LB:g=original	!	!	!	!	!	!	!	!	!	!	!	!	!	!	!
=94	=94	=94	=94	=94	=94	=94	=94	=94	=94	=94	=94	=94	=94	=94	=94	=94	=94	=94	=94	=94
!	!	!	!LO:SIC:v:s=8cc|\L	!	!	!	!	!	!	!	!	!	!	!	!	!	!	!	!	!
8c|\L	.	.	8cc'\L	.	8cc|\L	.	1.r	.	.	1.r	.	.	1.r	.	.	1.r	.	.	2.ryy	2.ryy
!	!	!	!LO:SIC:v:s=16cc|\L	!	!LO:SIC:v:s=16cc|\L	!	!	!	!	!	!	!	!	!	!	!	!	!	!	!
16c|\L	.	.	16cc'\L	.	16cc'\L	.	.	.	.	.	.	.	.	.	.	.	.	.	.	.
!	!	!	!LO:SIC:v:s=16cc|\JJ	!	!LO:SIC:v:s=16cc|\JJ	!	!	!	!	!	!	!	!	!	!	!	!	!	!	!
16c|\JJ	.	.	16cc'\JJ	.	16cc'\JJ	.	.	.	.	.	.	.	.	.	.	.	.	.	.	.
!	!	!	!LO:SIC:v:s=8ee|\L	!	!	!	!	!	!	!	!	!	!	!	!	!	!	!	!	!
8e|\L	.	.	8ee'\L	.	8ee|\L	.	.	.	.	.	.	.	.	.	.	.	.	.	.	.
!	!	!	!LO:SIC:v:s=8cc|\	!	!	!	!	!	!	!	!	!	!	!	!	!	!	!	!	!
8c|\	.	.	8cc'\	.	8cc|\	.	.	.	.	.	.	.	.	.	.	.	.	.	.	.
!	!	!	!LO:SIC:v:s=8gg|\	!	!	!	!	!	!	!	!	!	!	!	!	!	!	!	!	!
8g|\	.	.	8gg'\	.	8gg|\	.	.	.	.	.	.	.	.	.	.	.	.	.	.	.
!	!	!	!LO:SIC:v:s=8ee|\J	!	!	!	!	!	!	!	!	!	!	!	!	!	!	!	!	!
8e|\J	.	.	8ee'\J	.	8ee|\J	.	.	.	.	.	.	.	.	.	.	.	.	.	.	.
=95	=95	=95	=95	=95	=95	=95	=95	=95	=95	=95	=95	=95	=95	=95	=95	=95	=95	=95	=95	=95
*	*	*	*^	*	*	*	*	*	*	*	*	*	*	*	*	*	*	*	*	*
!LO:SIC:v:s=4c\	!	!	!	!	!	!	!	!	!	!	!	!	!	!	!	!	!	!	!	!	!
4c|\	.	.	8ee/L	8cc\L	.	8cccL 8ee\	.	.	.	.	.	.	.	.	.	.	.	.	.	2.ryy	2.ryy
.	.	.	16ee/L	16cc\L	.	16cccL 16ee\	.	.	.	.	.	.	.	.	.	.	.	.	.	.	.
.	.	.	16ee/JJ	16cc\JJ	.	16cccJJ 16ee\	.	.	.	.	.	.	.	.	.	.	.	.	.	.	.
4c\	.	.	8ee/L	8cc\L	.	8cccL 8ee\	.	.	.	.	.	.	.	.	.	.	.	.	.	.	.
.	.	.	8ee/	8cc\	.	8ccc 8ee\	.	.	.	.	.	.	.	.	.	.	.	.	.	.	.
4c\	.	.	8ee/	8cc\	.	8ccc 8ee\	.	.	.	.	.	.	.	.	.	.	.	.	.	.	.
.	.	.	8ee/J	8cc\J	.	8cccJ 8ee\	.	.	.	.	.	.	.	.	.	.	.	.	.	.	.
=96	=96	=96	=96	=96	=96	=96	=96	=96	=96	=96	=96	=96	=96	=96	=96	=96	=96	=96	=96	=96	=96
4c\	.	.	4ee/	4cc\	.	4ccc 4ee\	.	2.r	.	.	2.r	.	.	2.r	.	.	2.r	.	.	2.ryy	2.ryy
4r	.	.	4r	4ryy	.	4r	.	.	.	.	.	.	.	.	.	.	.	.	.	.	.
!	!	!	!LO:TX:b:i:t=finis:mod=	!	!	!	!	!	!	!	!LO:TX:b:i:t=finis:mod=	!	!	!LO:TX:b:i:t=finis:mod=	!	!	!	!	!	!	!
4r	.	.	4r	4ryy	.	4r	.	.	.	.	.	.	.	.	.	.	.	.	.	.	.
*	*	*	*v	*v	*	*	*	*	*	*	*	*	*	*	*	*	*	*	*	*	*
!!LO:TX:a:B:t=:mod=Fine
==	==	==	==	==	==	==	==	==	==	==	==	==	==	==	==	==	==	==	==	==
*-	*-	*-	*-	*-	*-	*-	*-	*-	*-	*-	*-	*-	*-	*-	*-	*-	*-	*-	*-	*-
!!!system-decoration: [(g1)][(g2)][(g3)]s9
!!!RDF**kern: | = vertical stroke
!!!RDF**kern: @ = marked note, color=grey
!!LO:MO:ori
!!!RDF**kern: > = above
!!!RDF**kern: < = below
!!LO:MO:end
!!!filter-modern: sic -sq | shed -e "s/:rj/:RJ/L" | modori -m | autostem -r | tie -s | shed -k -e "s/[<>]//g" | shed -e "s/^(X?)rep$/$1REP/I" | humtr -p
!!!ENC: Krzysztof Stępień
!!!END: 2020-09-04
!!!ENC: Kamil Watkowski
!!!END: 2021-11-29
!!!ENC-modern: Marta Lawrence
!!!END-modern: 2022-06-08
!!!YEC: Copyright 2022 Narodowy Instytut Fryderyka Chopina (https://polishscores.org)
!!!YEM: License CC-BY-4.0 (https://creativecommons.org/licenses/by/4.0)
